; generated by PrusaSlicer 2.8.0+win64 on 2024-12-12 at 12:20:21 UTC

; 

; external perimeters extrusion width = 0.45mm
; perimeters extrusion width = 0.45mm
; infill extrusion width = 0.45mm
; solid infill extrusion width = 0.45mm
; top infill extrusion width = 0.40mm
; first layer extrusion width = 0.42mm

;TYPE:Custom
G21                                   ; Установка единиц измерения в миллиметрах
M82                                   ; Установить экструдер в абсолютный режим
G92 E0                                ; Cбросит все координаты экструдера
G28                                   ; Припарковать все оси
M190 S100   ; Нагреть стол
G1 F900 Z15                           ; Поднять стол на скорости 15мм/сек в 15мм от сопла 
M109 S255       ; Нагреть сопло
G1 E15 F800                           ; Выдавить 20мм прутка
G90                                   ; Абсолютная система координат
G92 E0                                ; Cбросит все координаты экструдера
G21 ; set units to millimeters
G90 ; use absolute coordinates
M82 ; use absolute distances for extrusion
G92 E0
; Filament gcode
SET_PRESSURE_ADVANCE ADVANCE=0.03
M107
;LAYER_CHANGE
;Z:0.25
;HEIGHT:0.25
G1 E-2 F2400
G1 Z.25 F11400
G92 E0
G1 X119.272 Y107.86
G1 E2 F2400
G92 E0
;TYPE:Perimeter
;WIDTH:0.419999
G1 F1009
G1 X118.492 Y107.228 E.03823
G1 X117.772 Y106.508 E.077
G1 X117.131 Y105.716 E.1158
G1 X116.576 Y104.862 E.15458
G1 X116.345 Y104.409 E.17394
G1 X116.116 Y103.957 E.19323
G1 X115.75 Y103.006 E.23203
G1 X115.486 Y102.021 E.27086
G1 X115.327 Y101.016 E.3096
G1 X115.274 Y100 E.34834
G1 X115.327 Y98.983 E.38712
G1 X115.487 Y97.978 E.42587
G1 X115.75 Y96.994 E.46465
G1 X116.115 Y96.044 E.5034
G1 X116.578 Y95.136 E.54221
G1 X117.132 Y94.283 E.58094
G1 X117.772 Y93.492 E.61968
G1 X118.492 Y92.772 E.65845
G1 X119.283 Y92.131 E.69722
G1 X120.137 Y91.577 E.73598
G1 X121.044 Y91.115 E.77474
G1 X121.995 Y90.75 E.81353
G1 X122.978 Y90.486 E.85229
G1 X123.983 Y90.327 E.89103
G1 X125.002 Y90.274 E.92988
G1 X125.509 Y90.287 E.94919
G1 X126.522 Y90.393 E.98797
G1 X127.517 Y90.605 E1.02671
G1 X128.486 Y90.919 E1.0655
G1 X129.416 Y91.334 E1.10428
G1 X130.299 Y91.843 E1.14309
G1 X131.121 Y92.441 E1.1818
G1 X131.5 Y92.781 E1.20119
G1 X131.878 Y93.122 E1.22057
G1 X132.559 Y93.879 E1.25934
G1 X133.157 Y94.702 E1.29808
G1 X133.667 Y95.585 E1.33691
G1 X134.08 Y96.514 E1.37562
G1 X134.251 Y96.994 E1.39502
G1 X134.514 Y97.977 E1.43377
G1 X134.673 Y98.983 E1.47255
G1 X134.727 Y99.999 E1.51129
G1 X134.673 Y101.017 E1.55011
G1 X134.514 Y102.022 E1.58885
G1 X134.251 Y103.004 E1.62756
G1 X133.885 Y103.957 E1.66643
G1 X133.423 Y104.865 E1.70522
G1 X132.87 Y105.716 E1.74386
G1 X132.229 Y106.508 E1.78266
G1 X131.509 Y107.228 E1.82143
G1 X130.717 Y107.869 E1.86023
G1 X129.863 Y108.424 E1.89901
G1 X129.41 Y108.655 E1.91837
G1 X128.957 Y108.885 E1.93772
G1 X128.487 Y109.08 E1.9571
G1 X127.516 Y109.395 E1.99597
G1 X126.52 Y109.607 E2.03474
G1 X125.508 Y109.713 E2.07349
G1 X124.49 Y109.713 E2.11225
G1 X123.479 Y109.607 E2.15096
G1 X122.485 Y109.395 E2.18966
G1 X121.969 Y109.241 E2.21016
G1 X121.072 Y108.897 E2.24674
G1 X120.137 Y108.423 E2.28666
G1 X119.321 Y107.894 E2.32369
G1 X119.321 Y107.894 F11400
G1 X119.495 Y107.569
;TYPE:External perimeter
G1 F1009
G1 X118.745 Y106.962 E2.36043
G1 X118.051 Y106.27 E2.39775
G1 X117.433 Y105.509 E2.43508
G1 X116.899 Y104.687 E2.4724
G1 X116.454 Y103.817 E2.50961
G1 X116.096 Y102.884 E2.54766
G1 X115.847 Y101.956 E2.58425
G1 X115.693 Y100.988 E2.62157
G1 X115.641 Y100.01 E2.65886
G1 X115.691 Y99.031 E2.69619
G1 X115.843 Y98.063 E2.7335
G1 X116.096 Y97.117 E2.77079
G1 X116.454 Y96.184 E2.80884
G1 X116.891 Y95.326 E2.8455
G1 X117.422 Y94.506 E2.8827
G1 X118.038 Y93.744 E2.92001
G1 X118.73 Y93.051 E2.9573
G1 X119.491 Y92.433 E2.99463
G1 X120.312 Y91.899 E3.03192
G1 X121.184 Y91.453 E3.06921
G1 X122.099 Y91.101 E3.10654
G1 X123.045 Y90.847 E3.14384
G1 X124.012 Y90.692 E3.18113
G1 X124.991 Y90.64 E3.21846
G1 X125.495 Y90.653 E3.23766
G1 X126.455 Y90.754 E3.27442
G1 X127.413 Y90.957 E3.31171
G1 X128.345 Y91.258 E3.349
G1 X129.241 Y91.656 E3.38633
G1 X130.09 Y92.145 E3.42364
G1 X130.883 Y92.72 E3.46094
G1 X131.612 Y93.375 E3.49826
G1 X132.268 Y94.102 E3.53555
G1 X132.845 Y94.894 E3.57286
G1 X133.337 Y95.744 E3.61026
G1 X133.735 Y96.636 E3.64745
G1 X133.904 Y97.112 E3.66668
G1 X134.153 Y98.044 E3.70341
G1 X134.308 Y99.012 E3.74074
G1 X134.36 Y99.99 E3.77803
G1 X134.31 Y100.971 E3.81543
G1 X134.158 Y101.937 E3.85267
G1 X133.905 Y102.884 E3.88999
G1 X133.554 Y103.799 E3.92731
G1 X133.11 Y104.673 E3.96464
G1 X132.579 Y105.493 E4.00184
G1 X131.95 Y106.269 E4.03988
G1 X131.271 Y106.949 E4.07647
G1 X130.509 Y107.567 E4.11383
G1 X129.688 Y108.101 E4.15112
G1 X128.819 Y108.545 E4.18828
G1 X128.354 Y108.738 E4.20745
G1 X127.431 Y109.039 E4.24442
G1 X126.473 Y109.243 E4.28172
G1 X125.498 Y109.346 E4.31905
G1 X124.519 Y109.347 E4.35633
G1 X123.544 Y109.246 E4.39365
G1 X122.589 Y109.044 E4.43082
G1 X122.1 Y108.899 E4.45024
G1 X121.203 Y108.555 E4.48682
G1 X120.326 Y108.109 E4.52428
G1 X119.545 Y107.603 E4.55971
G1 X119.231 Y107.354 F11400
G1 X119.015 Y108.197
;TYPE:Perimeter
;WIDTH:0.546818
G1 F1009
G1 X118.19 Y107.525 E4.61425
G1 X117.828 Y107.172 E4.64017
G1 X117.441 Y106.772 E4.6687
G1 X116.774 Y105.944 E4.7232
G1 X116.197 Y105.051 E4.7777
G1 X115.962 Y104.604 E4.80359
G1 X115.719 Y104.106 E4.83199
G1 X115.34 Y103.113 E4.88647
G1 X115.068 Y102.085 E4.94098
G1 X114.982 Y101.587 E4.96688
G1 X114.904 Y101.035 E4.99546
G1 X114.851 Y99.974 E5.04991
G1 X114.909 Y98.914 E5.10433
G1 X114.982 Y98.413 E5.13028
G1 X115.078 Y97.865 E5.1588
G1 X115.356 Y96.839 E5.21329
G1 X115.739 Y95.849 E5.2677
G1 X115.962 Y95.395 E5.29363
G1 X116.225 Y94.901 E5.32232
G1 X116.804 Y94.014 E5.37662
G1 X117.475 Y93.19 E5.43109
G1 X117.828 Y92.827 E5.45704
G1 X118.228 Y92.441 E5.48553
G1 X119.055 Y91.774 E5.53999
G1 X119.948 Y91.198 E5.59446
G1 X120.395 Y90.962 E5.62037
G1 X120.895 Y90.718 E5.64889
G1 X121.888 Y90.34 E5.70335
G1 X122.915 Y90.067 E5.75782
G1 X123.413 Y89.981 E5.78372
G1 X123.965 Y89.904 E5.81229
G1 X125.026 Y89.851 E5.86674
;WIDTH:0.53393
G1 X125.557 Y89.866 E5.89326
;WIDTH:0.546908
G1 X126.613 Y89.979 E5.94771
G1 X127.651 Y90.203 E6.00215
G1 X128.135 Y90.353 E6.02813
G1 X128.661 Y90.534 E6.05665
G1 X129.63 Y90.968 E6.11108
G1 X130.549 Y91.502 E6.16557
G1 X131.407 Y92.128 E6.22002
G1 X132.195 Y92.841 E6.2745
G1 X132.538 Y93.212 E6.3004
G1 X132.904 Y93.632 E6.32896
G1 X133.526 Y94.493 E6.38342
G1 X134.056 Y95.417 E6.43803
;WIDTH:0.54671
G1 X134.484 Y96.386 E6.49232
;WIDTH:0.533914
G1 X134.661 Y96.887 E6.51884
;WIDTH:0.546822
G1 X134.933 Y97.914 E6.5733
G1 X135.019 Y98.413 E6.59926
G1 X135.097 Y98.964 E6.62779
G1 X135.15 Y99.999 E6.68091
;WIDTH:0.534248
G1 X135.15 Y100.025 E6.68221
;WIDTH:0.546912
G1 X135.091 Y101.088 E6.73679
;WIDTH:0.54674
G1 X134.923 Y102.135 E6.79114
G1 X134.645 Y103.161 E6.84562
G1 X134.47 Y103.636 E6.87156
G1 X134.261 Y104.152 E6.90009
G1 X133.776 Y105.098 E6.95457
G1 X133.197 Y105.985 E7.00886
G1 X132.526 Y106.81 E7.06336
G1 X131.773 Y107.559 E7.11779
G1 X131.384 Y107.883 E7.14374
G1 X130.945 Y108.226 E7.17229
G1 X130.052 Y108.803 E7.22678
G1 X129.108 Y109.281 E7.28101
;WIDTH:0.534044
G1 X128.613 Y109.485 E7.30774
;WIDTH:0.54683
G1 X127.601 Y109.81 E7.36222
G1 X126.561 Y110.029 E7.4167
G1 X126.059 Y110.088 E7.44261
G1 X125.504 Y110.137 E7.47117
G1 X124.442 Y110.134 E7.52561
G1 X123.386 Y110.02 E7.58006
;WIDTH:0.546712
G1 X122.351 Y109.797 E7.63432
;WIDTH:0.533912
G1 X121.841 Y109.645 E7.66088
;WIDTH:0.546826
G1 X120.85 Y109.262 E7.71534
;WIDTH:0.546942
G1 X119.901 Y108.775 E7.77003
;WIDTH:0.546684
G1 X119.065 Y108.229 E7.8212
G1 E5.8212 F2400
G92 E0
G1 X119.065 Y108.229 F11400
G1 X124.43 Y110.555
G1 E2 F2400
;WIDTH:0.419999
G1 F1009
G1 X124.383 Y110.554 E2.00179
G1 X123.882 Y110.514 E2.02093
G1 X123.309 Y110.436 E2.04295
G1 X122.793 Y110.34 E2.06294
G1 X122.231 Y110.203 E2.08497
G1 X121.676 Y110.036 E2.10704
G1 X121.202 Y109.867 E2.1262
G1 X120.645 Y109.633 E2.1492
G1 X120.191 Y109.416 E2.16836
G1 X119.658 Y109.123 E2.19152
G1 X119.23 Y108.86 E2.21065
G1 X118.737 Y108.517 E2.23352
G1 X118.338 Y108.21 E2.25269
G1 X117.88 Y107.815 E2.27572
G1 X117.516 Y107.468 E2.29487
G1 X117.102 Y107.028 E2.31787
G1 X116.776 Y106.645 E2.33702
G1 X116.411 Y106.163 E2.36004
G1 X116.126 Y105.748 E2.37921
G1 X115.813 Y105.231 E2.40222
G1 X115.574 Y104.789 E2.42135
G1 X115.318 Y104.245 E2.44424
G1 X115.126 Y103.78 E2.4634
G1 X114.927 Y103.209 E2.48642
G1 X114.785 Y102.726 E2.50559
G1 X114.647 Y102.138 E2.52859
G1 X114.556 Y101.643 E2.54775
G1 X114.48 Y101.043 E2.57078
G1 X114.441 Y100.542 E2.58991
G1 X114.429 Y99.938 E2.61291
G1 X114.442 Y99.435 E2.63207
G1 X114.493 Y98.833 E2.65507
G1 X114.559 Y98.335 E2.6742
G1 X114.672 Y97.741 E2.69722
G1 X114.79 Y97.253 E2.71634
G1 X114.965 Y96.674 E2.73937
G1 X115.134 Y96.198 E2.7586
G1 X115.368 Y95.643 E2.78153
G1 X115.585 Y95.19 E2.80066
G1 X115.877 Y94.658 E2.82377
G1 X116.139 Y94.232 E2.84281
G1 X116.484 Y93.736 E2.86582
G1 X116.79 Y93.337 E2.88497
G1 X117.185 Y92.88 E2.90797
G1 X117.532 Y92.516 E2.92712
G1 X117.972 Y92.102 E2.95012
G1 X118.355 Y91.776 E2.96927
G1 X118.836 Y91.411 E2.99226
G1 X119.251 Y91.126 E3.01143
G1 X119.768 Y90.814 E3.03442
G1 X120.21 Y90.574 E3.05357
G1 X120.757 Y90.317 E3.07658
G1 X121.222 Y90.125 E3.09574
G1 X121.792 Y89.926 E3.11873
G1 X122.274 Y89.784 E3.13786
G1 X122.863 Y89.646 E3.1609
G1 X123.357 Y89.555 E3.18003
G1 X123.957 Y89.48 E3.20305
G1 X124.458 Y89.441 E3.22218
G1 X125.037 Y89.427 E3.24423
G1 X125.615 Y89.446 E3.26625
G1 X126.116 Y89.486 E3.28539
G1 X126.715 Y89.568 E3.30841
G1 X127.209 Y89.66 E3.32754
G1 X127.796 Y89.804 E3.35055
G1 X128.278 Y89.948 E3.3697
G1 X128.847 Y90.152 E3.39272
G1 X129.311 Y90.345 E3.41186
G1 X129.855 Y90.608 E3.43487
G1 X130.296 Y90.849 E3.45401
G1 X130.81 Y91.167 E3.47702
G1 X131.224 Y91.452 E3.49616
G1 X131.701 Y91.823 E3.51917
G1 X132.083 Y92.15 E3.53832
G1 X132.519 Y92.568 E3.56132
G1 X132.865 Y92.933 E3.58047
G1 X133.255 Y93.395 E3.60349
G1 X133.561 Y93.794 E3.62264
G1 X133.9 Y94.294 E3.64564
G1 X134.162 Y94.723 E3.66478
G1 X134.449 Y95.258 E3.6879
G1 X134.665 Y95.712 E3.70704
G1 X134.883 Y96.244 E3.72893
G1 X135.074 Y96.792 E3.75103
G1 X135.216 Y97.274 E3.77016
G1 X135.354 Y97.862 E3.79316
G1 X135.445 Y98.357 E3.81232
G1 X135.521 Y98.956 E3.83531
G1 X135.56 Y99.457 E3.85444
G1 X135.574 Y100.01 E3.8755
G1 X135.558 Y100.564 E3.8966
G1 X135.508 Y101.169 E3.91972
G1 X135.442 Y101.665 E3.93877
G1 X135.328 Y102.259 E3.9618
G1 X135.21 Y102.748 E3.98095
G1 X135.035 Y103.326 E4.00395
G1 X134.867 Y103.8 E4.0231
G1 X134.633 Y104.358 E4.04614
G1 X134.415 Y104.811 E4.06528
G1 X134.137 Y105.319 E4.08733
G1 X133.862 Y105.767 E4.10735
G1 X133.518 Y106.263 E4.13033
G1 X133.211 Y106.662 E4.1495
G1 X132.816 Y107.119 E4.1725
G1 X132.469 Y107.484 E4.19168
G1 X132.028 Y107.898 E4.21471
G1 X131.645 Y108.224 E4.23386
G1 X131.164 Y108.589 E4.25685
G1 X130.749 Y108.874 E4.27602
G1 X130.232 Y109.187 E4.29903
G1 X129.79 Y109.426 E4.31816
G1 X129.27 Y109.672 E4.34006
G1 X128.73 Y109.892 E4.36226
G1 X128.256 Y110.06 E4.38141
G1 X127.675 Y110.228 E4.40444
G1 X127.186 Y110.345 E4.42359
G1 X126.591 Y110.452 E4.44661
G1 X126.093 Y110.517 E4.46573
G1 X125.49 Y110.561 E4.48875
G1 X124.987 Y110.573 E4.50791
G1 X124.49 Y110.557 E4.52684
G1 X124.49 Y110.557 F11400
G1 X124.421 Y110.921
;TYPE:External perimeter
G1 F1009
G1 X124.355 Y110.919 E4.52935
G1 X123.834 Y110.877 E4.54925
G1 X123.217 Y110.792 E4.57297
G1 X122.707 Y110.696 E4.59273
G1 X122.127 Y110.555 E4.61546
G1 X121.554 Y110.381 E4.63826
G1 X121.062 Y110.206 E4.65814
G1 X120.487 Y109.964 E4.68189
G1 X120.017 Y109.738 E4.70175
G1 X119.467 Y109.435 E4.72566
G1 X119.022 Y109.161 E4.74556
G1 X118.514 Y108.807 E4.76914
G1 X118.1 Y108.489 E4.78902
G1 X117.628 Y108.081 E4.81278
G1 X117.25 Y107.72 E4.83268
G1 X116.824 Y107.265 E4.85641
G1 X116.485 Y106.868 E4.87629
G1 X116.109 Y106.371 E4.90002
G1 X115.814 Y105.94 E4.91991
G1 X115.491 Y105.406 E4.94367
G1 X115.243 Y104.946 E4.96357
G1 X114.98 Y104.385 E4.98716
G1 X114.781 Y103.902 E5.00705
G1 X114.576 Y103.313 E5.0308
G1 X114.428 Y102.812 E5.05069
G1 X114.286 Y102.204 E5.07446
G1 X114.192 Y101.691 E5.09432
G1 X114.115 Y101.072 E5.11807
G1 X114.075 Y100.551 E5.13797
G1 X114.062 Y99.928 E5.1617
G1 X114.077 Y99.407 E5.18155
G1 X114.13 Y98.785 E5.20532
G1 X114.199 Y98.268 E5.22518
G1 X114.316 Y97.656 E5.24891
G1 X114.439 Y97.149 E5.26878
G1 X114.62 Y96.552 E5.29253
G1 X114.796 Y96.058 E5.3125
G1 X115.037 Y95.486 E5.33613
G1 X115.263 Y95.015 E5.35602
G1 X115.565 Y94.467 E5.37985
G1 X115.837 Y94.025 E5.39961
G1 X116.193 Y93.513 E5.42336
G1 X116.512 Y93.099 E5.44326
G1 X116.92 Y92.628 E5.46699
G1 X117.28 Y92.25 E5.48687
G1 X117.734 Y91.824 E5.51058
G1 X118.132 Y91.485 E5.53049
G1 X118.629 Y91.109 E5.55422
G1 X119.06 Y90.814 E5.57411
G1 X119.593 Y90.492 E5.59782
G1 X120.052 Y90.244 E5.61769
G1 X120.617 Y89.978 E5.64147
G1 X121.099 Y89.78 E5.66131
G1 X121.688 Y89.575 E5.68506
G1 X122.189 Y89.428 E5.70494
G1 X122.796 Y89.286 E5.72868
G1 X123.309 Y89.192 E5.74854
G1 X123.928 Y89.114 E5.7723
G1 X124.448 Y89.074 E5.79216
G1 X125.046 Y89.061 E5.81494
G1 X125.644 Y89.081 E5.83772
G1 X126.164 Y89.123 E5.85758
G1 X126.782 Y89.208 E5.88133
G1 X127.295 Y89.304 E5.9012
G1 X127.9 Y89.453 E5.92493
G1 X128.4 Y89.602 E5.9448
G1 X128.987 Y89.814 E5.96856
G1 X129.468 Y90.015 E5.98841
G1 X130.03 Y90.286 E6.01217
G1 X130.488 Y90.536 E6.03204
G1 X131.017 Y90.865 E6.05576
G1 X131.447 Y91.162 E6.07566
G1 X131.939 Y91.544 E6.09938
G1 X132.335 Y91.884 E6.11925
G1 X132.785 Y92.316 E6.143
G1 X133.144 Y92.695 E6.16288
G1 X133.546 Y93.172 E6.18663
G1 X133.862 Y93.586 E6.20646
G1 X134.213 Y94.102 E6.23022
G1 X134.484 Y94.548 E6.25009
G1 X134.78 Y95.1 E6.27394
G1 X135.003 Y95.571 E6.29378
G1 X135.229 Y96.122 E6.31646
G1 X135.425 Y96.687 E6.33923
G1 X135.572 Y97.188 E6.35911
G1 X135.714 Y97.795 E6.38285
G1 X135.808 Y98.309 E6.40275
G1 X135.886 Y98.927 E6.42647
G1 X135.926 Y99.448 E6.44637
G1 X135.94 Y100.02 E6.46816
G1 X135.924 Y100.593 E6.48999
G1 X135.871 Y101.217 E6.51384
G1 X135.802 Y101.731 E6.53359
G1 X135.685 Y102.344 E6.55735
G1 X135.562 Y102.852 E6.57725
G1 X135.381 Y103.448 E6.60097
G1 X135.205 Y103.941 E6.6209
G1 X134.963 Y104.515 E6.64462
G1 X134.737 Y104.986 E6.66451
G1 X134.436 Y105.532 E6.68825
G1 X134.164 Y105.974 E6.70801
G1 X133.808 Y106.486 E6.73176
G1 X133.489 Y106.9 E6.75166
G1 X133.081 Y107.372 E6.77542
G1 X132.721 Y107.75 E6.7953
G1 X132.266 Y108.176 E6.81903
G1 X131.869 Y108.515 E6.83891
G1 X131.371 Y108.891 E6.86267
G1 X130.94 Y109.186 E6.88256
G1 X130.407 Y109.509 E6.90629
G1 X129.947 Y109.757 E6.92619
G1 X129.41 Y110.011 E6.94881
G1 X128.852 Y110.237 E6.97173
G1 X128.36 Y110.411 E6.9916
G1 X127.761 Y110.584 E7.01534
G1 X127.253 Y110.705 E7.03522
G1 X126.639 Y110.815 E7.05897
G1 X126.121 Y110.882 E7.07886
G1 X125.499 Y110.927 E7.10261
G1 X124.978 Y110.939 E7.12245
G1 X124.481 Y110.923 E7.14138
G1 X124.081 Y110.896 F11400
;LAYER_CHANGE
;Z:0.45
;HEIGHT:0.2
G1 Z.45 F11400
G1 E5.14138 F2400
G92 E0
G1 Z.45 F11400
G1 X119.238 Y107.904
G1 E2 F2400
G92 E0
;TYPE:Perimeter
;WIDTH:0.449999
G1 F968
G1 X118.455 Y107.27 E.0341
G1 X117.73 Y106.545 E.06881
G1 X117.085 Y105.748 E.10352
G1 X116.527 Y104.888 E.13822
G1 X115.888 Y103.552 E.18835
G1 X115.555 Y102.541 E.22438
G1 X115.339 Y101.53 E.25937
G1 X115.272 Y101.022 E.27671
G1 X115.218 Y100 E.31135
G1 X115.272 Y98.977 E.34603
G1 X115.432 Y97.966 E.38068
G1 X115.697 Y96.977 E.41534
G1 X116.064 Y96.021 E.45
G1 X116.524 Y95.117 E.48433
G1 X117.086 Y94.25 E.5193
G1 X117.398 Y93.844 E.53663
G1 X118.083 Y93.083 E.57129
G1 X118.844 Y92.398 E.60595
G1 X119.672 Y91.796 E.6406
G1 X120.559 Y91.284 E.67527
G1 X121.494 Y90.868 E.70991
G1 X122.468 Y90.551 E.74458
G1 X123.469 Y90.338 E.77922
G1 X124.479 Y90.232 E.8136
G1 X125.511 Y90.231 E.84853
G1 X126.022 Y90.271 E.86588
G1 X127.033 Y90.431 E.90053
G1 X128.022 Y90.696 E.93519
G1 X128.978 Y91.063 E.96985
G1 X129.882 Y91.524 E1.0042
G1 X130.312 Y91.815 E1.02177
G1 X131.117 Y92.369 E1.05485
G1 X131.917 Y93.082 E1.09112
