; generated by PrusaSlicer 2.8.0+win64 on 2024-12-13 at 06:51:07 UTC

; 

; external perimeters extrusion width = 0.45mm
; perimeters extrusion width = 0.45mm
; infill extrusion width = 0.45mm
; solid infill extrusion width = 0.45mm
; top infill extrusion width = 0.40mm
; first layer extrusion width = 0.42mm

;TYPE:Custom
G21                                   ; Установка единиц измерения в миллиметрах
M82                                   ; Установить экструдер в абсолютный режим
G92 E0                                ; Cбросит все координаты экструдера
G28                                   ; Припарковать все оси
M190 S100   ; Нагреть стол
G1 F900 Z15                           ; Поднять стол на скорости 15мм/сек в 15мм от сопла 
M109 S255       ; Нагреть сопло
G1 E15 F800                           ; Выдавить 20мм прутка
G90                                   ; Абсолютная система координат
G92 E0                                ; Cбросит все координаты экструдера
G21 ; set units to millimeters
G90 ; use absolute coordinates
M82 ; use absolute distances for extrusion
G92 E0
; Filament gcode
SET_PRESSURE_ADVANCE ADVANCE=0.03
M107
;LAYER_CHANGE
;Z:0.25
;HEIGHT:0.25
G1 E-2 F2400
G1 Z.25 F11400
G92 E0
G1 X106.324 Y81.327
G1 E2 F2400
G92 E0
;TYPE:Perimeter
;WIDTH:0.419999
G1 F4800
G1 X106.326 Y81.326 E.00009
G1 X106.503 Y81.187 E.00866
G1 X106.815 Y81.071 E.02133
G1 X106.973 Y81.057 E.02737
G1 X143.027 Y81.057 E1.40022
G1 X143.275 Y81.092 E1.40976
G1 X143.497 Y81.187 E1.41895
G1 X143.674 Y81.326 E1.42752
G1 X143.813 Y81.503 E1.43609
G1 X143.908 Y81.725 E1.44528
G1 X143.943 Y81.973 E1.45482
G1 X143.943 Y118.027 E2.82767
G1 X143.908 Y118.275 E2.83721
G1 X143.813 Y118.497 E2.8464
G1 X143.674 Y118.674 E2.85497
G1 X143.497 Y118.813 E2.86354
G1 X143.185 Y118.929 E2.87621
G1 X143.027 Y118.943 E2.88225
G1 X106.973 Y118.943 E4.2551
G1 X106.725 Y118.908 E4.26464
G1 X106.503 Y118.813 E4.27383
G1 X106.326 Y118.674 E4.2824
G1 X106.187 Y118.497 E4.29097
G1 X106.071 Y118.185 E4.30364
G1 X106.057 Y118.027 E4.30968
G1 X106.057 Y81.973 E5.68253
G1 X106.092 Y81.725 E5.69207
G1 X106.187 Y81.503 E5.70126
G1 X106.287 Y81.375 E5.70744
G1 X106.287 Y81.375 F11400
G1 X106.596 Y81.596
G1 F4800
G1 X106.691 Y81.502 E5.71253
G1 X106.973 Y81.424 E5.72367
G1 X143.027 Y81.424 E7.09652
G1 X143.309 Y81.502 E7.10766
G1 X143.498 Y81.691 E7.11784
G1 X143.576 Y81.973 E7.12898
G1 X143.576 Y118.027 E8.50183
G1 X143.498 Y118.309 E8.51297
G1 X143.309 Y118.498 E8.52315
G1 X143.027 Y118.576 E8.53429
G1 X106.973 Y118.576 E9.90714
G1 X106.691 Y118.498 E9.91828
G1 X106.502 Y118.309 E9.92846
G1 X106.424 Y118.027 E9.9396
G1 X106.424 Y81.973 E11.31245
G1 X106.502 Y81.691 E11.32359
G1 X106.554 Y81.639 E11.32639
G1 X106.554 Y81.639 F11400
G1 X106.85 Y81.841
;TYPE:External perimeter
G1 F4800
G1 X106.973 Y81.79 E11.33146
G1 X143.027 Y81.79 E12.70431
G1 X143.156 Y81.844 E12.70964
G1 X143.21 Y81.973 E12.71497
G1 X143.21 Y118.027 E14.08782
G1 X143.156 Y118.156 E14.09315
G1 X143.027 Y118.21 E14.09848
G1 X106.973 Y118.21 E15.47133
G1 X106.844 Y118.156 E15.47666
G1 X106.79 Y118.027 E15.48199
G1 X106.79 Y81.973 E16.85484
G1 X106.823 Y81.893 E16.85814
G1 X107.211 Y81.797 F11400
G1 E14.85814 F2400
G92 E0
G1 X102.142 Y77.856 F11400
G1 E2 F2400
;WIDTH:0.426825
G1 F4800
G1 X102.185 Y77.882 E2.00195
;WIDTH:0.419999
G1 X102.21 Y77.973 E2.00554
G1 X102.21 Y122.027 E3.68301
G1 X102.185 Y122.118 E3.6866
;WIDTH:0.429652
G1 X102.059 Y122.212 E3.69274
G1 X102.027 Y122.213 E3.69399
;WIDTH:0.426825
G1 X99.973 Y122.213 E3.77366
G1 X99.79 Y122.027 E3.78378
;WIDTH:0.419999
G1 X99.79 Y77.973 E5.46125
;WIDTH:0.426825
G1 X99.973 Y77.787 E5.47137
G1 X102.027 Y77.787 E5.55104
G1 X102.091 Y77.825 E5.55393
G1 X102.204 Y78.208 F11400
G1 E3.55393 F2400
G92 E0
G1 X97.126 Y127.874 F11400
G1 E2 F2400
;TYPE:Perimeter
;WIDTH:0.419999
G1 F4800
G1 X96.871 Y127.385 E2.021
G1 X96.857 Y127.227 E2.02704
G1 X96.857 Y122.773 E2.19664
G1 X97.007 Y122.271 E2.21659
G1 X97.338 Y121.967 E2.2337
G1 X97.773 Y121.857 E2.25079
G1 X99.057 Y121.857 E2.29968
G1 X99.057 Y78.143 E3.9642
G1 X97.773 Y78.143 E4.01309
G1 X97.338 Y78.033 E4.03018
G1 X97.007 Y77.729 E4.04729
G1 X96.871 Y77.385 E4.06138
G1 X96.857 Y77.227 E4.06742
G1 X96.857 Y72.773 E4.23702
G1 X97.126 Y72.126 E4.2637
G1 X97.615 Y71.871 E4.2847
G1 X97.773 Y71.857 E4.29074
G1 X102.227 Y71.857 E4.46034
G1 X102.729 Y72.007 E4.48029
G1 X103.033 Y72.338 E4.4974
G1 X103.143 Y72.773 E4.51449
G1 X103.143 Y74.057 E4.56338
G1 X146.857 Y74.057 E6.2279
G1 X146.857 Y72.773 E6.27679
G1 X146.967 Y72.338 E6.29388
G1 X147.271 Y72.007 E6.31099
G1 X147.615 Y71.871 E6.32508
G1 X147.773 Y71.857 E6.33112
G1 X152.227 Y71.857 E6.50072
G1 X152.874 Y72.126 E6.5274
G1 X153.143 Y72.773 E6.55408
G1 X153.143 Y77.227 E6.72368
G1 X153.129 Y77.385 E6.72972
G1 X152.993 Y77.729 E6.74381
G1 X152.662 Y78.033 E6.76092
G1 X152.227 Y78.143 E6.77801
G1 X150.943 Y78.143 E6.8269
G1 X150.943 Y121.857 E8.49142
G1 X152.227 Y121.857 E8.54031
G1 X152.662 Y121.967 E8.5574
G1 X152.993 Y122.271 E8.57451
G1 X153.143 Y122.773 E8.59446
G1 X153.143 Y127.227 E8.76406
G1 X153.129 Y127.385 E8.7701
G1 X152.874 Y127.874 E8.7911
G1 X152.385 Y128.129 E8.8121
G1 X152.227 Y128.143 E8.81814
G1 X147.773 Y128.143 E8.98774
G1 X147.271 Y127.993 E9.00769
G1 X146.967 Y127.662 E9.0248
G1 X146.857 Y127.227 E9.04189
G1 X146.857 Y125.943 E9.09078
G1 X103.143 Y125.943 E10.7553
G1 X103.143 Y127.227 E10.80419
G1 X103.033 Y127.662 E10.82128
G1 X102.729 Y127.993 E10.83839
G1 X102.385 Y128.129 E10.85248
G1 X102.227 Y128.143 E10.85852
G1 X97.773 Y128.143 E11.02812
G1 X97.181 Y127.897 E11.05253
G1 E9.05253 F2400
G92 E0
G1 X97.181 Y127.897 F11400
G1 X102.943 Y79.131
G1 E2 F2400
G1 F4800
G1 X102.943 Y77.973 E2.04409
G1 X102.938 Y77.938 E2.04544
G1 X147.062 Y77.938 E3.72557
G1 X147.062 Y122.062 E5.4057
G1 X102.938 Y122.062 E7.08583
G1 X102.943 Y79.191 E8.71825
G1 X102.943 Y79.191 F11400
G1 X103.872 Y77.576
G1 F4800
G1 X147.027 Y77.576 E10.36149
G1 X147.299 Y77.504 E10.3722
G1 X147.496 Y77.701 E10.38281
G1 X147.424 Y77.973 E10.39352
G1 X147.424 Y122.027 E12.07099
G1 X147.496 Y122.299 E12.0817
G1 X147.299 Y122.496 E12.09231
G1 X147.027 Y122.424 E12.10302
G1 X102.973 Y122.424 E13.78049
G1 X102.701 Y122.496 E13.7912
G1 X102.504 Y122.299 E13.80181
G1 X102.576 Y122.027 E13.81252
G1 X102.576 Y77.973 E15.48999
G1 X102.504 Y77.701 E15.5007
G1 X102.701 Y77.504 E15.51131
G1 X102.973 Y77.576 E15.52202
G1 X103.812 Y77.576 E15.55397
G1 E13.55397 F2400
G92 E0
G1 X103.812 Y77.576 F11400
G1 X97.385 Y127.615
G1 E2 F2400
G1 F4800
G1 X97.232 Y127.322 E2.01259
G1 X97.224 Y127.227 E2.01622
G1 X97.224 Y122.773 E2.18582
G1 X97.313 Y122.472 E2.19777
G1 X97.512 Y122.29 E2.20804
G1 X97.773 Y122.224 E2.21829
G1 X99.62 Y122.224 E2.28862
G1 X99.424 Y122.027 E2.2992
G1 X99.424 Y77.973 E3.97667
G1 X99.589 Y77.776 E3.98645
G1 X97.773 Y77.776 E4.0556
G1 X97.512 Y77.71 E4.06585
G1 X97.313 Y77.528 E4.07612
G1 X97.224 Y77.227 E4.08807
G1 X97.224 Y72.773 E4.25767
G1 X97.385 Y72.385 E4.27367
G1 X97.678 Y72.232 E4.28626
G1 X97.773 Y72.224 E4.28989
G1 X102.227 Y72.224 E4.45949
G1 X102.528 Y72.313 E4.47144
G1 X102.71 Y72.512 E4.48171
G1 X102.776 Y72.773 E4.49196
G1 X102.776 Y74.62 E4.56229
G1 X102.973 Y74.424 E4.57287
G1 X147.027 Y74.424 E6.25034
G1 X147.224 Y74.62 E6.26092
G1 X147.224 Y72.773 E6.33125
G1 X147.29 Y72.512 E6.3415
G1 X147.472 Y72.313 E6.35177
G1 X147.773 Y72.224 E6.36372
G1 X152.227 Y72.224 E6.53332
G1 X152.615 Y72.385 E6.54932
G1 X152.776 Y72.773 E6.56532
G1 X152.776 Y77.227 E6.73492
G1 X152.687 Y77.528 E6.74687
G1 X152.488 Y77.71 E6.75714
G1 X152.227 Y77.776 E6.76739
G1 X150.38 Y77.776 E6.83772
G1 X150.576 Y77.973 E6.8483
G1 X150.576 Y122.027 E8.52577
G1 X150.411 Y122.224 E8.53555
G1 X152.227 Y122.224 E8.6047
G1 X152.488 Y122.29 E8.61495
G1 X152.687 Y122.472 E8.62522
G1 X152.776 Y122.773 E8.63717
G1 X152.776 Y127.227 E8.80677
G1 X152.768 Y127.322 E8.8104
G1 X152.615 Y127.615 E8.82299
G1 X152.322 Y127.768 E8.83558
G1 X152.227 Y127.776 E8.83921
G1 X147.773 Y127.776 E9.00881
G1 X147.472 Y127.687 E9.02076
G1 X147.29 Y127.488 E9.03103
G1 X147.224 Y127.227 E9.04128
G1 X147.224 Y125.411 E9.11043
G1 X147.027 Y125.576 E9.12021
G1 X102.973 Y125.576 E10.79768
G1 X102.776 Y125.411 E10.80746
G1 X102.776 Y127.227 E10.87661
G1 X102.71 Y127.488 E10.88686
G1 X102.528 Y127.687 E10.89713
G1 X102.227 Y127.776 E10.90908
G1 X97.773 Y127.776 E11.07868
G1 X97.44 Y127.638 E11.09241
G1 E9.09241 F2400
G92 E0
G1 X97.44 Y127.638 F11400
G1 X102.853 Y77.147
G1 E2 F2400
;TYPE:External perimeter
;WIDTH:0.429652
G1 F4800
G1 X102.788 Y77.059 E2.00428
G1 X102.787 Y77.027 E2.00553
;WIDTH:0.426825
G1 X102.787 Y74.973 E2.0852
G1 X102.973 Y74.79 E2.09532
;WIDTH:0.419999
G1 X104.427 Y74.79 E2.15068
G1 X147.027 Y74.79 E3.77278
;WIDTH:0.426825
G1 X147.213 Y74.973 E3.7829
G1 X147.213 Y77.027 E3.86257
G1 X147.188 Y77.12 E3.86631
;WIDTH:0.426342
G1 X147.074 Y77.204 E3.8718
;WIDTH:0.419999
G1 X102.973 Y77.21 E5.55106
G1 X102.893 Y77.189 E5.55421
G1 X102.795 Y76.801 F11400
G1 X102.352 Y77.352
G1 F4800
G1 X102.318 Y77.385 E5.55601
;WIDTH:0.426825
G1 X102.027 Y77.413 E5.56735
G1 X99.227 Y77.41 E5.67595
;WIDTH:0.419999
G1 X97.773 Y77.41 E5.73131
G1 X97.62 Y77.327 E5.73794
G1 X97.59 Y77.227 E5.74192
G1 X97.59 Y72.773 E5.91152
G1 X97.644 Y72.644 E5.91685
G1 X97.773 Y72.59 E5.92218
G1 X102.227 Y72.59 E6.09178
G1 X102.327 Y72.62 E6.09576
G1 X102.41 Y72.773 E6.10239
G1 X102.41 Y74.227 E6.15775
;WIDTH:0.426825
G1 X102.413 Y77.027 E6.26635
G1 X102.387 Y77.306 E6.27722
G1 X101.999 Y77.405 F11400
G1 E4.27722 F2400
G92 E0
G1 X147.648 Y77.352 F11400
G1 E2 F2400
;WIDTH:0.419999
G1 F4800
G1 X147.615 Y77.318 E2.0018
;WIDTH:0.426825
G1 X147.587 Y77.027 E2.01314
G1 X147.59 Y74.227 E2.12174
;WIDTH:0.419999
G1 X147.59 Y72.773 E2.1771
G1 X147.673 Y72.62 E2.18373
G1 X147.773 Y72.59 E2.18771
G1 X152.227 Y72.59 E2.35731
G1 X152.356 Y72.644 E2.36264
G1 X152.41 Y72.773 E2.36797
G1 X152.41 Y77.227 E2.53757
G1 X152.38 Y77.327 E2.54155
G1 X152.227 Y77.41 E2.54818
G1 X150.773 Y77.41 E2.60354
;WIDTH:0.426825
G1 X147.973 Y77.413 E2.71214
G1 X147.694 Y77.387 E2.72301
G1 X147.595 Y76.999 F11400
G1 E.72301 F2400
G92 E0
G1 X150.119 Y77.881 F11400
G1 E2 F2400
G1 F4800
G1 X150.21 Y77.973 E2.00502
;WIDTH:0.419999
G1 X150.21 Y122.027 E3.68249
;WIDTH:0.426825
G1 X150.027 Y122.213 E3.69261
G1 X147.973 Y122.213 E3.77228
G1 X147.815 Y122.118 E3.77943
;WIDTH:0.419999
G1 X147.79 Y122.027 E3.78302
G1 X147.79 Y77.973 E5.46049
G1 X147.815 Y77.882 E5.46408
;WIDTH:0.429652
G1 X147.941 Y77.788 E5.47022
G1 X147.973 Y77.787 E5.47147
;WIDTH:0.426825
G1 X150.027 Y77.787 E5.55114
G1 X150.077 Y77.838 E5.55391
G1 X150.202 Y78.218 F11400
G1 E3.55391 F2400
G92 E0
G1 X147.648 Y122.648 F11400
G1 E2 F2400
;WIDTH:0.419999
G1 F4800
G1 X147.682 Y122.615 E2.0018
;WIDTH:0.426825
G1 X147.973 Y122.587 E2.01314
G1 X150.773 Y122.59 E2.12174
;WIDTH:0.419999
G1 X152.227 Y122.59 E2.1771
G1 X152.38 Y122.673 E2.18373
G1 X152.41 Y122.773 E2.18771
G1 X152.41 Y127.227 E2.35731
G1 X152.356 Y127.356 E2.36264
G1 X152.227 Y127.41 E2.36797
G1 X147.773 Y127.41 E2.53757
G1 X147.673 Y127.38 E2.54155
G1 X147.59 Y127.227 E2.54818
G1 X147.59 Y125.773 E2.60354
;WIDTH:0.429652
G1 X147.587 Y125.027 E2.63269
;WIDTH:0.426825
G1 X147.587 Y122.973 E2.71236
G1 X147.613 Y122.694 E2.72323
G1 X148.001 Y122.595 F11400
G1 E.72323 F2400
G92 E0
G1 X147.119 Y125.119 F11400
G1 E2 F2400
G1 F4800
G1 X147.027 Y125.21 E2.00502
;WIDTH:0.419999
G1 X102.973 Y125.21 E3.68249
;WIDTH:0.426825
G1 X102.787 Y125.027 E3.69261
G1 X102.787 Y122.973 E3.77228
G1 X102.882 Y122.815 E3.77943
;WIDTH:0.419999
G1 X102.973 Y122.79 E3.78302
G1 X147.027 Y122.79 E5.46049
G1 X147.118 Y122.815 E5.46408
;WIDTH:0.426825
G1 X147.213 Y122.973 E5.47123
G1 X147.213 Y125.027 E5.5509
G1 X147.162 Y125.077 E5.55367
G1 X146.782 Y125.202 F11400
G1 E3.55367 F2400
G92 E0
G1 X102.352 Y122.648 F11400
G1 E2 F2400
;WIDTH:0.419999
G1 F4800
G1 X102.385 Y122.682 E2.0018
;WIDTH:0.426825
G1 X102.413 Y122.973 E2.01314
G1 X102.41 Y125.773 E2.12174
;WIDTH:0.419999
G1 X102.41 Y127.227 E2.1771
G1 X102.327 Y127.38 E2.18373
G1 X102.227 Y127.41 E2.18771
G1 X97.773 Y127.41 E2.35731
G1 X97.644 Y127.356 E2.36264
G1 X97.59 Y127.227 E2.36797
G1 X97.59 Y122.773 E2.53757
G1 X97.62 Y122.673 E2.54155
G1 X97.773 Y122.59 E2.54818
G1 X99.227 Y122.59 E2.60354
;WIDTH:0.426825
G1 X102.027 Y122.587 E2.71214
G1 X102.306 Y122.613 E2.72301
G1 X102.405 Y123.001 F11400
G1 E.72301 F2400
G92 E0
G1 X95.943 Y129.057 F11400
G1 E2 F2400
;TYPE:Perimeter
;WIDTH:0.419999
G1 F4800
G1 X95.943 Y70.943 E4.21284
G1 X154.057 Y70.943 E6.42568
G1 X154.057 Y71.636 E6.45207
G1 X154.057 Y129.057 E8.63852
G1 X96.003 Y129.057 E10.84907
G1 X96.003 Y129.057 F11400
G1 X95.576 Y129.424
G1 F4800
G1 X95.576 Y70.576 E13.08986
G1 X154.424 Y70.576 E15.33065
G1 X154.424 Y71.636 E15.37101
G1 X154.424 Y129.424 E17.57144
G1 X95.636 Y129.424 E19.80994
G1 X95.636 Y129.424 F11400
G1 X95.21 Y129.79
;TYPE:External perimeter
G1 F4800
G1 X95.21 Y70.21 E22.0786
G1 X154.79 Y70.21 E24.34726
G1 X154.79 Y71.636 E24.40156
G1 X154.79 Y129.79 E26.61592
G1 X95.27 Y129.79 E28.8823
G1 X95.211 Y129.394 F11400
G1 E26.8823 F2400
G92 E0
G1 X146.947 Y78.796 F11400
G1 E2 F2400
;TYPE:Solid infill
;WIDTH:0.421273
G1 F4800
G1 X146.369 Y78.217 E2.03126
G1 X145.849 Y78.217 E2.05113
G1 X146.783 Y79.151 E2.1016
G1 X146.783 Y79.671 E2.12147
G1 X145.329 Y78.217 E2.20004
G1 X144.809 Y78.217 E2.21991
G1 X146.783 Y80.191 E2.32658
G1 X146.783 Y80.711 E2.34645
G1 X144.289 Y78.217 E2.48122
G1 X143.769 Y78.217 E2.50109
G1 X146.783 Y81.231 E2.66396
G1 X146.783 Y81.75 E2.68379
G1 X143.25 Y78.217 E2.8747
G1 X142.73 Y78.217 E2.89457
G1 X146.783 Y82.27 E3.11358
G1 X146.783 Y82.79 E3.13345
G1 X142.21 Y78.217 E3.38056
G1 X141.69 Y78.217 E3.40043
G1 X146.783 Y83.31 E3.67564
G1 X146.783 Y83.83 E3.69551
G1 X141.17 Y78.217 E3.99882
G1 X140.65 Y78.217 E4.01869
G1 X143.244 Y80.812 E4.15889
G1 X143.349 Y80.826 E4.16294
G1 X143.638 Y80.95 E4.17496
G1 X143.869 Y81.131 E4.18617
G1 X144.05 Y81.362 E4.19738
G1 X144.174 Y81.651 E4.2094
G1 X144.188 Y81.756 E4.21345
G1 X146.783 Y84.35 E4.35365
G1 X146.783 Y84.87 E4.37352
G1 X144.217 Y82.305 E4.51215
G1 X144.217 Y82.825 E4.53202
G1 X146.783 Y85.39 E4.67065
G1 X146.783 Y85.91 E4.69052
G1 X144.217 Y83.344 E4.82918
G1 X144.217 Y83.864 E4.84905
G1 X146.783 Y86.429 E4.98768
G1 X146.783 Y86.949 E5.00755
G1 X144.217 Y84.384 E5.14618
G1 X144.217 Y84.904 E5.16605
G1 X146.783 Y87.469 E5.30468
G1 X146.783 Y87.989 E5.32455
G1 X144.217 Y85.424 E5.46318
G1 X144.217 Y85.944 E5.48305
G1 X146.783 Y88.509 E5.62168
G1 X146.783 Y89.029 E5.64155
G1 X144.217 Y86.464 E5.78018
G1 X144.217 Y86.984 E5.80005
G1 X146.783 Y89.549 E5.93868
G1 X146.783 Y90.069 E5.95855
G1 X144.217 Y87.504 E6.09718
G1 X144.217 Y88.024 E6.11705
G1 X146.783 Y90.589 E6.25568
G1 X146.783 Y91.109 E6.27555
G1 X144.217 Y88.543 E6.41421
G1 X144.217 Y89.063 E6.43408
G1 X146.783 Y91.628 E6.57271
G1 X146.783 Y92.148 E6.59258
G1 X144.217 Y89.583 E6.73121
G1 X144.217 Y90.103 E6.75108
G1 X146.783 Y92.668 E6.88971
G1 X146.783 Y93.188 E6.90958
G1 X144.217 Y90.623 E7.04821
G1 X144.217 Y91.143 E7.06808
G1 X146.783 Y93.708 E7.20671
G1 X146.783 Y94.228 E7.22658
G1 X144.217 Y91.663 E7.36521
G1 X144.217 Y92.183 E7.38508
G1 X146.783 Y94.748 E7.52371
G1 X146.783 Y95.268 E7.54358
G1 X144.217 Y92.703 E7.68221
G1 X144.217 Y93.223 E7.70208
G1 X146.783 Y95.788 E7.84071
G1 X146.783 Y96.308 E7.86058
G1 X144.217 Y93.742 E7.99924
G1 X144.217 Y94.262 E8.01911
G1 X146.783 Y96.827 E8.15774
G1 X146.783 Y97.347 E8.17761
G1 X144.217 Y94.782 E8.31624
G1 X144.217 Y95.302 E8.33611
G1 X146.783 Y97.867 E8.47474
G1 X146.783 Y98.387 E8.49461
G1 X144.217 Y95.822 E8.63324
G1 X144.217 Y96.342 E8.65311
G1 X146.783 Y98.907 E8.79174
G1 X146.783 Y99.427 E8.81161
G1 X144.217 Y96.862 E8.95024
G1 X144.217 Y97.382 E8.97011
G1 X146.783 Y99.947 E9.10874
G1 X146.783 Y100.467 E9.12861
G1 X144.217 Y97.902 E9.26724
G1 X144.217 Y98.422 E9.28711
G1 X146.783 Y100.987 E9.42574
G1 X146.783 Y101.507 E9.44561
G1 X144.217 Y98.941 E9.58427
G1 X144.217 Y99.461 E9.60414
G1 X146.783 Y102.026 E9.74277
G1 X146.783 Y102.546 E9.76264
G1 X144.217 Y99.981 E9.90127
