;FLAVOR:Marlin
;TIME:750
;Filament used: 1.22054m
;Layer height: 0.2
;MINX:119.376
;MINY:113.261
;MINZ:0.3
;MAXX:149.102
;MAXY:162.987
;MAXZ:20.9
;Generated with Cura_SteamEngine 4.11.0
M140 S100
M105
M190 S100
M104 S255
M105
M109 S255
M82 ;absolute extrusion mode
G28 ;Home
G1 Z15.0 F6000 ;Move the platform down 15mm
;Prime the extruder
G92 E0
G1 F200 E3
G92 E0
G92 E0
G92 E0
G1 F1200 E-3
;LAYER_COUNT:105
;LAYER:0
M107
G0 F3600 X120.768 Y114.729 Z0.3
;TYPE:SKIRT
G1 F1200 E0
G1 F2400 X120.916 Y114.584 E0.01034
G1 X121.488 Y114.128 E0.04683
G1 X121.701 Y113.991 E0.05947
G1 X122.232 Y113.709 E0.08946
G1 X122.433 Y113.623 E0.10037
G1 X123.192 Y113.393 E0.13994
G1 X123.895 Y113.294 E0.17536
G1 X124.304 Y113.275 E0.19578
G1 X125.104 Y113.261 E0.2357
G1 X131.121 Y113.262 E0.53589
G1 X131.646 Y113.272 E0.56209
G1 X132.22 Y113.307 E0.59078
G1 X132.338 Y113.32 E0.5967
G1 X132.862 Y113.417 E0.62329
G1 X133.097 Y113.479 E0.63541
G1 X133.813 Y113.752 E0.67364
G1 X134.157 Y113.927 E0.6929
G1 X136.628 Y115.138 E0.83019
G1 X139.133 Y116.28 E0.96754
G1 X141.613 Y117.327 E1.10184
G1 X144.168 Y118.323 E1.23865
G1 X146.265 Y119.066 E1.34964
G1 X146.739 Y119.241 E1.37485
G1 X147.227 Y119.464 E1.40162
G1 X147.676 Y119.756 E1.42834
G1 X148.077 Y120.112 E1.45509
G1 X148.42 Y120.524 E1.48184
G1 X148.699 Y120.982 E1.50859
G1 X148.906 Y121.477 E1.53536
G1 X149.038 Y121.997 E1.56213
G1 X149.09 Y122.51 E1.58785
G1 X149.102 Y123.198 E1.62218
G1 X149.092 Y123.908 E1.65761
G1 X149.044 Y124.442 E1.68436
G1 X148.918 Y124.963 E1.7111
G1 X148.716 Y125.46 E1.73786
G1 X148.447 Y125.913 E1.76415
G1 X147.86 Y126.755 E1.81536
G1 X147.417 Y127.372 E1.85325
G1 X145.889 Y129.634 E1.98944
G1 X144.412 Y131.958 E2.12682
G1 X143.028 Y134.28 E2.26168
G1 X141.702 Y136.655 E2.39738
G1 X140.437 Y139.08 E2.53384
G1 X139.234 Y141.551 E2.67095
G1 X138.123 Y144.013 E2.80571
G1 X137.052 Y146.567 E2.94388
G1 X136.083 Y149.087 E3.07858
G1 X135.188 Y151.621 E3.21265
G1 X134.337 Y154.265 E3.35123
G1 X133.587 Y156.845 E3.48527
G1 X132.881 Y159.554 E3.62494
G1 X132.715 Y160.233 E3.65981
G1 X132.549 Y160.743 E3.68657
G1 X132.309 Y161.223 E3.71334
G1 X132.001 Y161.662 E3.7401
G1 X131.631 Y162.05 E3.76684
G1 X131.207 Y162.378 E3.79359
G1 X130.739 Y162.641 E3.82037
G1 X130.238 Y162.831 E3.8471
G1 X129.714 Y162.944 E3.87385
G1 X128.997 Y162.986 E3.90968
G1 X127.381 Y162.987 E3.9903
G1 X126.683 Y162.977 E4.02513
G1 X126.149 Y162.929 E4.05188
G1 X125.628 Y162.803 E4.07862
G1 X125.131 Y162.6 E4.1054
G1 X124.67 Y162.326 E4.13216
G1 X124.255 Y161.987 E4.15889
G1 X123.895 Y161.589 E4.18567
G1 X123.598 Y161.143 E4.2124
G1 X123.37 Y160.657 E4.23918
G1 X123.218 Y160.143 E4.26592
G1 X123.109 Y159.238 E4.3114
G1 X122.97 Y157.307 E4.40799
G1 X122.698 Y154.597 E4.54387
G1 X122.353 Y151.926 E4.67823
G1 X121.924 Y149.215 E4.81517
G1 X121.419 Y146.51 E4.95245
G1 X120.847 Y143.873 E5.08707
G1 X120.2 Y141.24 E5.22234
G1 X119.784 Y139.705 E5.30169
G1 X119.556 Y138.888 E5.344
G1 X119.433 Y138.235 E5.37716
G1 X119.4 Y137.813 E5.39827
G1 X119.376 Y136.6 E5.4588
G1 X119.376 Y118.714 E6.35114
G1 X119.386 Y118.201 E6.37674
G1 X119.44 Y117.441 E6.41475
G1 X119.461 Y117.297 E6.42201
G1 X119.662 Y116.528 E6.46166
G1 X119.769 Y116.249 E6.47657
G1 X120.129 Y115.55 E6.5158
G1 X120.286 Y115.313 E6.52998
G1 X120.768 Y114.729 E6.56776
G0 F3600 X121.048 Y115.015
G1 F2400 X121.196 Y114.87 E6.5781
G1 X121.704 Y114.465 E6.61051
G1 X121.917 Y114.328 E6.62314
G1 X122.389 Y114.077 E6.64981
G1 X122.59 Y113.991 E6.66072
G1 X123.265 Y113.787 E6.6959
G1 X123.916 Y113.694 E6.72871
G1 X124.311 Y113.675 E6.74844
G1 X125.104 Y113.661 E6.78801
G1 X131.115 Y113.662 E7.0879
G1 X131.627 Y113.672 E7.11345
G1 X132.176 Y113.704 E7.14088
G1 X132.76 Y113.804 E7.17044
G1 X132.995 Y113.866 E7.18257
G1 X133.632 Y114.109 E7.21658
G1 X134.001 Y114.297 E7.23724
G1 X136.435 Y115.49 E7.37248
G1 X138.948 Y116.635 E7.51025
G1 X141.461 Y117.697 E7.64636
G1 X144.044 Y118.703 E7.78466
G1 X146.126 Y119.441 E7.89486
G1 X146.6 Y119.616 E7.92007
G1 X147.059 Y119.828 E7.94529
G1 X147.479 Y120.11 E7.97053
G1 X147.849 Y120.454 E7.99574
G1 X148.161 Y120.852 E8.02097
G1 X148.406 Y121.295 E8.04622
G1 X148.578 Y121.77 E8.07143
G1 X148.673 Y122.267 E8.09667
G1 X148.701 Y122.854 E8.12599
G1 X148.702 Y123.192 E8.14285
G1 X148.692 Y123.902 E8.17828
G1 X148.645 Y124.405 E8.20348
G1 X148.519 Y124.895 E8.22873
G1 X148.318 Y125.359 E8.25395
G1 X148.119 Y125.685 E8.27301
G1 X147.535 Y126.522 E8.32393
G1 X147.094 Y127.137 E8.36168
G1 X145.547 Y129.426 E8.49952
G1 X144.09 Y131.719 E8.63505
G1 X142.67 Y134.101 E8.77341
G1 X141.341 Y136.482 E8.90945
G1 X140.08 Y138.899 E9.04546
G1 X138.874 Y141.377 E9.18295
G1 X137.754 Y143.856 E9.31866
G1 X136.686 Y146.406 E9.45659
G1 X135.709 Y148.947 E9.59241
G1 X134.802 Y151.513 E9.72819
G1 X133.961 Y154.127 E9.86519
G1 X133.199 Y156.747 E10.00131
G1 X132.494 Y159.453 E10.14082
G1 X132.326 Y160.138 E10.17601
G1 X132.168 Y160.618 E10.20122
G1 X131.936 Y161.067 E10.22644
G1 X131.636 Y161.474 E10.25166
G1 X131.275 Y161.829 E10.27692
G1 X130.864 Y162.122 E10.3021
G1 X130.411 Y162.347 E10.32734
G1 X129.928 Y162.498 E10.35259
G1 X129.307 Y162.577 E10.38382
G1 X128.896 Y162.587 E10.40433
G1 X127.387 Y162.587 E10.47961
G1 X126.689 Y162.577 E10.51444
G1 X126.186 Y162.53 E10.53964
G1 X125.696 Y162.404 E10.56489
G1 X125.232 Y162.202 E10.59013
G1 X124.806 Y161.93 E10.61535
G1 X124.428 Y161.595 E10.64055
G1 X124.108 Y161.204 E10.66575
G1 X123.853 Y160.767 E10.691
G1 X123.67 Y160.296 E10.71621
G1 X123.547 Y159.653 E10.74887
G1 X123.504 Y159.157 E10.77371
G1 X123.368 Y157.275 E10.86784
G1 X123.098 Y154.573 E11.00332
G1 X122.746 Y151.849 E11.14035
G1 X122.311 Y149.099 E11.27925
G1 X121.816 Y146.457 E11.41336
G1 X121.245 Y143.819 E11.54802
G1 X120.576 Y141.097 E11.68786
G1 X120.163 Y139.573 E11.76663
G1 X119.942 Y138.78 E11.8077
G1 X119.829 Y138.18 E11.83816
G1 X119.8 Y137.805 E11.85693
G1 X119.776 Y136.6 E11.91706
G1 X119.776 Y118.72 E12.80909
G1 X119.806 Y117.807 E12.85467
G1 X119.856 Y117.355 E12.87736
G1 X120.035 Y116.671 E12.91263
G1 X120.142 Y116.392 E12.92754
G1 X120.462 Y115.771 E12.96239
G1 X120.619 Y115.534 E12.97658
G1 X121.048 Y115.015 E13.01017
G1 F1200 E10.01017
;MESH:XY_new.stl
G0 F3600 X122.342 Y117.844
G0 X123.595 Y118.127
G0 X128.583 Y140.296
G1 F1200 E13.01017
G0 F3600 X128.68 Y140.317
;TYPE:WALL-INNER
G1 F2400 X128.626 Y140.837 E13.03625
G1 X128.626 Y158.787 E13.93178
G1 X127.326 Y158.787 E13.99664
G1 X127.325 Y140.755 E14.89626
G1 X127.229 Y140.15 E14.92682
G1 X127.024 Y139.64 E14.95424
G1 X126.719 Y139.187 E14.98149
G1 X126.326 Y138.809 E15.00869
G1 X125.865 Y138.521 E15.03581
G1 X125.355 Y138.336 E15.06288
G1 X124.831 Y138.262 E15.08928
G1 X124.236 Y138.26 E15.11896
G1 X123.983 Y138.207 E15.13186
G1 X123.8 Y138.094 E15.14259
G1 X123.655 Y137.907 E15.1544
G1 X123.576 Y137.628 E15.16886
G1 X123.576 Y118.125 E16.14187
G1 X123.638 Y117.849 E16.15598
G1 X123.76 Y117.665 E16.167
G1 X123.917 Y117.546 E16.17683
G1 X124.247 Y117.461 E16.19383
G1 X131.715 Y117.462 E16.56641
G1 X131.973 Y117.516 E16.57956
G1 X132.152 Y117.628 E16.59009
G1 X132.297 Y117.814 E16.60186
G1 X132.376 Y118.127 E16.61796
G1 X132.377 Y120.717 E16.74718
G1 X132.474 Y121.329 E16.77809
G1 X132.721 Y121.911 E16.80964
G1 X133.048 Y122.361 E16.83739
G1 X133.594 Y122.818 E16.87291
G1 X134.055 Y123.032 E16.89827
G1 X134.171 Y123.085 E16.90463
G1 X134.387 Y123.127 E16.91561
G1 X134.77 Y123.203 E16.93509
G1 X134.874 Y123.209 E16.94029
G1 X134.888 Y123.21 E16.94099
G1 X144.902 Y123.211 E17.44059
G1 X144.902 Y123.261 E17.44308
G1 X134.889 Y123.261 E17.50617
G1 X134.871 Y123.262
G1 X134.781 Y123.274 E17.50658
G1 X134.346 Y123.336 E17.5153
G1 X134.272 Y123.362 E17.51654
G1 X134.152 Y123.405 E17.52212
G1 X133.835 Y123.521 E17.53896
G1 X133.37 Y123.812 E17.56632
G1 X132.928 Y124.254 E17.59751
G1 X132.635 Y124.722 E17.62506
G1 X132.43 Y125.316 E17.65641
G1 X132.376 Y125.837 E17.68254
G1 X132.375 Y137.604 E18.2696
G1 X132.333 Y137.825 E18.28082
G1 X132.211 Y138.036 E18.29298
G1 X132.089 Y138.145 E18.30114
G1 X131.876 Y138.24 E18.31278
G1 X131.728 Y138.26 E18.32023
G1 X131.118 Y138.262 E18.35066
G1 X130.595 Y138.336 E18.37701
G1 X130.085 Y138.522 E18.4041
G1 X129.62 Y138.812 E18.43144
G1 X129.179 Y139.254 E18.46259
G1 X128.884 Y139.725 E18.49031
G1 X128.68 Y140.317 E18.52155
G0 F3600 X129.073 Y140.404
;TYPE:WALL-OUTER
G1 F2400 X129.026 Y140.858 E18.54432
G1 X129.026 Y159.187 E19.45876
G1 X126.926 Y159.187 E19.56353
G1 X126.925 Y140.787 E20.48151
G1 X126.841 Y140.257 E20.50828
G1 X126.669 Y139.828 E20.53134
G1 X126.411 Y139.446 E20.55434
G1 X126.079 Y139.126 E20.57734
G1 X125.689 Y138.883 E20.60027
G1 X125.258 Y138.726 E20.62315
G1 X124.802 Y138.662 E20.64613
G1 X124.196 Y138.66 E20.67636
G1 X123.83 Y138.583 E20.69502
G1 X123.528 Y138.396 E20.71274
G1 X123.295 Y138.097 E20.73165
G1 X123.182 Y137.728 E20.75091
G1 X123.176 Y137.641 E20.75526
G1 X123.176 Y118.081 E21.73111
G1 X123.264 Y117.69 E21.75111
G1 X123.465 Y117.387 E21.76925
G1 X123.727 Y117.187 E21.78569
G1 X124.077 Y117.072 E21.80407
G1 X124.233 Y117.061 E21.81187
G1 X131.755 Y117.062 E22.18715
G1 X132.125 Y117.14 E22.20601
G1 X132.423 Y117.326 E22.22354
G1 X132.655 Y117.623 E22.24234
G1 X132.759 Y117.928 E22.25842
G1 X132.776 Y118.111 E22.26759
G1 X132.777 Y120.686 E22.39605
G1 X132.861 Y121.218 E22.42292
G1 X133.071 Y121.713 E22.44975
G1 X133.342 Y122.086 E22.47275
G1 X133.81 Y122.477 E22.50318
G1 X134.295 Y122.702 E22.52985
G1 X134.821 Y122.805 E22.55659
G1 X134.901 Y122.81 E22.56059
G1 X145.302 Y122.811 E23.0795
G1 X145.302 Y123.661 E23.1219
G1 X134.899 Y123.662 E23.64091
G1 X134.443 Y123.726 E23.66388
G1 X134.011 Y123.883 E23.68682
G1 X133.621 Y124.127 E23.70977
G1 X133.243 Y124.505 E23.73644
G1 X132.998 Y124.896 E23.75946
G1 X132.823 Y125.403 E23.78622
G1 X132.776 Y125.858 E23.80904
G1 X132.775 Y137.641 E24.39689
G1 X132.714 Y137.965 E24.41334
G1 X132.525 Y138.292 E24.43219
G1 X132.307 Y138.485 E24.44671
G1 X131.987 Y138.628 E24.4642
G1 X131.755 Y138.66 E24.47588
G1 X131.147 Y138.662 E24.50622
G1 X130.692 Y138.726 E24.52914
G1 X130.261 Y138.883 E24.55202
G1 X129.871 Y139.127 E24.57498
G1 X129.494 Y139.505 E24.60161
G1 X129.247 Y139.899 E24.62481
G1 X129.073 Y140.404 E24.65146
G0 F3600 X129.053 Y140.603
G0 X128.296 Y140.233
;TYPE:SKIN
G1 F2400 X128.236 Y140.817 E24.68075
G1 X128.236 Y158.397 E25.55782
G1 X127.716 Y158.397 E25.58376
G1 X127.715 Y140.724 E26.46547
G1 X127.607 Y140.045 E26.49977
G1 X127.371 Y139.456 E26.53143
G1 X127.019 Y138.935 E26.5628
G1 X126.568 Y138.499 E26.59409
G1 X126.037 Y138.168 E26.62531
G1 X125.45 Y137.956 E26.65645
G1 X124.859 Y137.872 E26.68623
G1 X124.278 Y137.87 E26.71521
G1 X124.065 Y137.799 E26.72642
G1 X123.966 Y137.575 E26.73863
G1 X123.966 Y118.167 E27.7069
G1 X124.05 Y117.934 E27.71926
G1 X124.298 Y117.851 E27.73231
G1 X131.673 Y117.852 E28.10025
G1 X131.887 Y117.922 E28.11148
G1 X131.986 Y118.175 E28.12503
G1 X131.987 Y120.748 E28.2534
G1 X132.096 Y121.438 E28.28825
G1 X132.38 Y122.104 E28.32437
G1 X132.761 Y122.63 E28.35678
G1 X133.383 Y123.15 E28.39723
G1 X133.561 Y123.232 E28.407
G1 X133.126 Y123.505 E28.43263
G1 X132.622 Y124.01 E28.46822
G1 X132.281 Y124.552 E28.50017
G1 X132.046 Y125.231 E28.53601
G1 X131.986 Y125.817 E28.5654
G1 X131.985 Y137.569 E29.15171
G1 X131.904 Y137.788 E29.16336
G1 X131.706 Y137.87 E29.17405
G1 X131.09 Y137.872 E29.20479
G1 X130.5 Y137.956 E29.23452
G1 X129.913 Y138.169 E29.26567
G1 X129.376 Y138.504 E29.29725
G1 X128.871 Y139.01 E29.33291
G1 X128.529 Y139.556 E29.36506
G1 X128.296 Y140.233 E29.40078
G0 F3600 X128.056 Y158.037
G1 F2400 X127.895 Y157.876 E29.41214
G0 F3600 X128.056 Y157.471
G1 F2400 X127.895 Y157.31 E29.4235
G0 F3600 X128.056 Y156.906
G1 F2400 X127.895 Y156.745 E29.43486
G0 F3600 X128.056 Y156.34
G1 F2400 X127.895 Y156.179 E29.44622
G0 F3600 X128.056 Y155.774
G1 F2400 X127.895 Y155.613 E29.45757
G0 F3600 X128.056 Y155.209
G1 F2400 X127.895 Y155.048 E29.46893
G0 F3600 X128.056 Y154.643
G1 F2400 X127.895 Y154.482 E29.48029
G0 F3600 X128.056 Y154.077
G1 F2400 X127.895 Y153.916 E29.49165
G0 F3600 X128.056 Y153.512
G1 F2400 X127.895 Y153.35 E29.50305
G0 F3600 X128.056 Y152.946
G1 F2400 X127.895 Y152.785 E29.51441
G0 F3600 X128.056 Y152.38
G1 F2400 X127.895 Y152.219 E29.52577
G0 F3600 X128.056 Y151.815
G1 F2400 X127.895 Y151.653 E29.53716
G0 F3600 X128.056 Y151.249
G1 F2400 X127.895 Y151.088 E29.54852
G0 F3600 X128.056 Y150.683
G1 F2400 X127.895 Y150.522 E29.55988
G0 F3600 X128.056 Y150.118
G1 F2400 X127.895 Y149.956 E29.57127
G0 F3600 X128.056 Y149.552
G1 F2400 X127.895 Y149.391 E29.58263
G0 F3600 X128.056 Y148.986
G1 F2400 X127.895 Y148.825 E29.59399
G0 F3600 X128.056 Y148.421
G1 F2400 X127.895 Y148.259 E29.60539
G0 F3600 X128.056 Y147.855
G1 F2400 X127.895 Y147.694 E29.61675
G0 F3600 X128.056 Y147.289
G1 F2400 X127.895 Y147.128 E29.62811
G0 F3600 X128.056 Y146.723
G1 F2400 X127.895 Y146.562 E29.63947
G0 F3600 X128.056 Y146.158
G1 F2400 X127.895 Y145.997 E29.65083
G0 F3600 X128.056 Y145.592
G1 F2400 X127.895 Y145.431 E29.66219
G0 F3600 X128.056 Y145.026
G1 F2400 X127.895 Y144.865 E29.67354
G0 F3600 X128.056 Y144.461
G1 F2400 X127.895 Y144.299 E29.68494
G0 F3600 X128.056 Y143.895
G1 F2400 X127.895 Y143.734 E29.6963
G0 F3600 X128.056 Y143.329
G1 F2400 X127.895 Y143.168 E29.70766
G0 F3600 X128.056 Y142.764
G1 F2400 X127.895 Y142.602 E29.71905
G0 F3600 X128.056 Y142.198
G1 F2400 X127.895 Y142.037 E29.73041
G0 F3600 X128.056 Y141.632
G1 F2400 X127.895 Y141.471 E29.74177
G0 F3600 X128.056 Y141.067
G1 F2400 X127.895 Y140.905 E29.75317
G0 F3600 X128.084 Y140.529
G1 F2400 X127.825 Y140.27 E29.77144
G0 F3600 X128.169 Y140.048
G1 F2400 X127.558 Y139.437 E29.81455
G0 F3600 X128.313 Y139.627
G1 F2400 X124.145 Y135.459 E30.10862
G0 F3600 X124.145 Y136.024
G1 F2400 X126.137 Y138.017 E30.24921
G1 X126.207 Y138.087
G0 F3600 X125.308 Y137.753
G1 F2400 X124.145 Y136.59 E30.33126
G0 F3600 X124.145 Y137.156
G1 F2400 X124.679 Y137.689 E30.3689
G0 F3600 X124.145 Y134.893
G1 F2400 X128.506 Y139.254 E30.6766
G0 F3600 X128.723 Y138.906
G1 F2400 X124.145 Y134.327 E30.99963
G0 F3600 X124.145 Y133.761
G1 F2400 X129.004 Y138.621 E31.3425
G0 F3600 X129.292 Y138.343
G1 F2400 X124.145 Y133.196 E31.70565
G0 F3600 X124.145 Y132.63
G1 F2400 X129.64 Y138.125 E32.09335
G0 F3600 X130.018 Y137.938
G1 F2400 X124.145 Y132.064 E32.50776
G0 F3600 X124.145 Y131.499
G1 F2400 X130.434 Y137.788 E32.95148
G0 F3600 X130.925 Y137.713
G1 F2400 X124.145 Y130.933 E33.42984
G0 F3600 X124.145 Y130.367
G1 F2400 X131.467 Y137.689 E33.94645
G0 F3600 X131.805 Y137.462
G1 F2400 X124.145 Y129.802 E34.48691
G0 F3600 X124.145 Y129.236
G1 F2400 X131.805 Y136.896 E35.02736
G0 F3600 X131.805 Y136.33
G1 F2400 X124.145 Y128.67 E35.56781
G0 F3600 X124.145 Y128.105
G1 F2400 X131.805 Y135.765 E36.10827
G0 F3600 X131.805 Y135.199
G1 F2400 X124.145 Y127.539 E36.64872
G0 F3600 X124.145 Y126.973
G1 F2400 X131.805 Y134.633 E37.18918
G0 F3600 X131.805 Y134.068
G1 F2400 X124.145 Y126.408 E37.72963
G0 F3600 X124.145 Y125.842
G1 F2400 X131.805 Y133.502 E38.27009
G0 F3600 X131.805 Y132.936
G1 F2400 X124.145 Y125.276 E38.81054
G0 F3600 X124.145 Y124.711
G1 F2400 X131.805 Y132.371 E39.35099
G0 F3600 X131.805 Y131.805
G1 F2400 X124.145 Y124.145 E39.89145
G0 F3600 X124.145 Y123.579
G1 F2400 X131.805 Y131.239 E40.4319
G0 F3600 X131.805 Y130.674
G1 F2400 X124.145 Y123.013 E40.97239
G0 F3600 X124.145 Y122.448
G1 F2400 X131.805 Y130.108 E41.51285
G0 F3600 X131.805 Y129.542
G1 F2400 X124.145 Y121.882 E42.0533
G0 F3600 X124.145 Y121.316
G1 F2400 X131.805 Y128.976 E42.59376
G0 F3600 X131.805 Y128.411
G1 F2400 X124.145 Y120.751 E43.13421
G0 F3600 X124.145 Y120.185
G1 F2400 X131.805 Y127.845 E43.67466
G0 F3600 X131.805 Y127.279
G1 F2400 X124.145 Y119.619 E44.21512
G0 F3600 X124.145 Y119.054
G1 F2400 X131.805 Y126.714 E44.75557
G0 F3600 X131.805 Y126.148
G1 F2400 X124.145 Y118.488 E45.29603
G0 F3600 X124.271 Y118.049
G1 F2400 X131.826 Y125.604 E45.82907
G0 F3600 X131.897 Y125.109
G1 F2400 X124.819 Y118.031 E46.32847
G0 F3600 X125.385 Y118.031
G1 F2400 X132.042 Y124.689 E46.79819
G0 F3600 X132.224 Y124.304
