;FLAVOR:Marlin
;TIME:31754
;Filament used: 48.6806m
;Layer height: 0.2
;MINX:19.594
;MINY:39.594
;MINZ:0.2
;MAXX:230.406
;MAXY:170.406
;MAXZ:50
;Generated with Cura_SteamEngine 4.11.0
M82 ;absolute extrusion mode
;Sliced at: Fri 22-10-2021 10:44:41
G21
G90
M82
M220 S100
M221 S100
G28
M190 S90
M109 S235
G1 F600 Z15
G92 E0
G1 F300 E10
M117 Printing...
;

G92 E0
;T0                             ;switch to extruder 1
;G92 E0                      ;reset extruder distance
;G1 F2000 E93           ;load filament
;G92 E0                      ;reset extruder distance
;M104 S235
;

G92 E0
G1 F1500 E-4
;LAYER_COUNT:250
;LAYER:0
M107
G0 F2400 X21.47 Y40.075 Z0.2
;TYPE:SKIRT
G1 F1500 E0
G1 X21.929 Y39.868 E0.01842
G1 X22.411 Y39.709 E0.03699
G1 X23.109 Y39.618 E0.06274
G1 X24.254 Y39.595 E0.10464
G1 X226.096 Y39.594 E7.48927
G1 X226.621 Y39.601 E7.50847
G1 X227.111 Y39.633 E7.52644
G1 X227.612 Y39.712 E7.545
G1 X228.094 Y39.868 E7.56353
G1 X228.659 Y40.172 E7.587
G1 X228.87 Y40.314 E7.59631
G1 X229.267 Y40.629 E7.61485
G1 X229.61 Y41.003 E7.63342
G1 X229.952 Y41.545 E7.65686
G1 X230.042 Y41.725 E7.66423
G1 X230.232 Y42.195 E7.68278
G1 X230.372 Y42.91 E7.70943
G1 X230.394 Y43.263 E7.72237
G1 X230.406 Y43.992 E7.74905
G1 X230.406 Y166.06 E12.21504
G1 X230.396 Y166.792 E12.24183
G1 X230.349 Y167.297 E12.26038
G1 X230.223 Y167.788 E12.27893
G1 X229.929 Y168.459 E12.30573
G1 X229.676 Y168.899 E12.3243
G1 X229.358 Y169.294 E12.34285
G1 X228.982 Y169.634 E12.3614
G1 X228.557 Y169.91 E12.37994
G1 X228.071 Y170.132 E12.39949
G1 X227.589 Y170.291 E12.41806
G1 X226.891 Y170.382 E12.44381
G1 X225.746 Y170.405 E12.48571
G1 X23.904 Y170.406 E19.87033
G1 X23.379 Y170.399 E19.88954
G1 X22.889 Y170.367 E19.90751
G1 X22.388 Y170.288 E19.92606
G1 X21.906 Y170.132 E19.9446
G1 X21.341 Y169.828 E19.96807
G1 X21.13 Y169.686 E19.97738
G1 X20.733 Y169.371 E19.99592
G1 X20.39 Y168.997 E20.01448
G1 X20.03 Y168.418 E20.03943
G1 X19.939 Y168.23 E20.04707
G1 X19.754 Y167.757 E20.06565
G1 X19.626 Y167.074 E20.09108
G1 X19.606 Y166.734 E20.10354
G1 X19.594 Y165.966 E20.13164
G1 X19.594 Y43.868 E24.59873
G1 X19.604 Y43.196 E24.62332
G1 X19.652 Y42.691 E24.64188
G1 X19.778 Y42.2 E24.66043
G1 X20.084 Y41.514 E24.68791
G1 X20.341 Y41.076 E24.70649
G1 X20.663 Y40.684 E24.72505
G1 X21.042 Y40.348 E24.74358
G1 X21.47 Y40.075 E24.76215
G1 F1500 E20.76215
;MESH:Box.stl
G0 F2400 X23.428 Y43.429
G0 X23.814 Y43.815
;TYPE:WALL-INNER
G1 F1500 E24.76215
G1 X225.987 Y43.814 E31.48645
G1 X226.186 Y43.814 E31.49307
G1 X226.186 Y44.013 E31.49735
G1 X226.186 Y166.185 E35.56081
G1 X24.013 Y166.186 E42.28511
G1 X23.814 Y166.186 E42.29173
G1 X23.814 Y165.987 E42.29601
G1 X23.814 Y43.815 E46.35947
G0 F2400 X23.414 Y43.415
G1 F1500 X226.387 Y43.414 E53.11038
G1 X226.586 Y43.414 E53.117
G1 X226.586 Y43.613 E53.12128
G1 X226.586 Y166.585 E57.21135
G1 X23.613 Y166.586 E63.96226
G1 X23.414 Y166.586 E63.96888
G1 X23.414 Y166.387 E63.97316
G1 X23.414 Y43.415 E68.06322
G0 F2400 X23.079 Y43.087
;TYPE:WALL-OUTER
G1 F1500 X23.247 Y43.015 E68.0693
G1 X226.721 Y43.014 E74.83687
G1 X226.75 Y43.014 E74.83784
G1 X226.924 Y43.09 E74.84415
G1 X226.986 Y43.262 E74.85024
G1 X226.986 Y43.291 E74.8512
G1 X226.986 Y166.757 E78.9577
G1 X226.921 Y166.913 E78.96332
G1 X226.753 Y166.985 E78.9694
G1 X23.279 Y166.986 E85.73697
G1 X23.25 Y166.986 E85.73793
G1 X23.089 Y166.922 E85.7437
G1 X23.016 Y166.771 E85.74927
G1 X23.014 Y166.738 E85.75037
G1 X23.014 Y166.709 E85.75134
G1 X23.014 Y43.243 E89.85783
G1 X23.079 Y43.087 E89.86346
G0 F2400 X23.247 Y43.015
G0 X23.265 Y43.015
G0 X23.454 Y43.455
G1 F1500 E85.86346
G0 F2400 X23.514 Y43.455
G0 X24.194 Y165.805
;TYPE:SKIN
G1 F1500 E89.86346
G1 X24.383 Y165.804 E89.86974
G1 X24.194 Y165.615 E89.87863
G1 X24.194 Y165.05 E89.89742
G1 X24.948 Y165.804 E89.93289
G1 X25.514 Y165.804 E89.95171
G1 X24.194 Y164.484 E90.0138
G1 X24.194 Y163.918 E90.03263
G1 X26.08 Y165.804 E90.12134
G1 X26.645 Y165.804 E90.14013
G1 X24.194 Y163.352 E90.25544
G1 X24.194 Y162.787 E90.27424
G1 X27.211 Y165.804 E90.41615
G1 X27.777 Y165.804 E90.43497
G1 X24.194 Y162.221 E90.6035
G1 X24.194 Y161.655 E90.62233
G1 X28.342 Y165.804 E90.81746
G1 X28.908 Y165.804 E90.83629
G1 X24.194 Y161.09 E91.05802
G1 X24.194 Y160.524 E91.07684
G1 X29.474 Y165.804 E91.3252
G1 X30.04 Y165.804 E91.34402
G1 X24.194 Y159.958 E91.619
G1 X24.194 Y159.393 E91.63779
G1 X30.605 Y165.804 E91.93935
G1 X31.171 Y165.804 E91.95817
G1 X24.194 Y158.827 E92.28635
G1 X24.194 Y158.261 E92.30518
G1 X31.737 Y165.804 E92.65998
G1 X32.302 Y165.804 E92.67877
G1 X24.194 Y157.696 E93.06014
G1 X24.194 Y157.13 E93.07897
G1 X32.868 Y165.804 E93.48697
G1 X33.434 Y165.804 E93.50579
G1 X24.194 Y156.564 E93.94041
G1 X24.194 Y155.999 E93.9592
G1 X33.999 Y165.804 E94.4204
G1 X34.565 Y165.804 E94.43923
G1 X24.194 Y155.433 E94.92705
G1 X24.194 Y154.867 E94.94587
G1 X35.131 Y165.804 E95.46032
G1 X35.696 Y165.804 E95.47911
G1 X24.194 Y154.302 E96.02013
G1 X24.194 Y153.736 E96.03895
G1 X36.262 Y165.804 E96.60659
G1 X36.828 Y165.804 E96.62542
G1 X24.194 Y153.17 E97.21968
G1 X24.194 Y152.604 E97.23851
G1 X37.393 Y165.804 E97.85937
G1 X37.959 Y165.804 E97.8782
G1 X24.194 Y152.039 E98.52566
G1 X24.194 Y151.473 E98.54449
G1 X38.525 Y165.804 E99.21857
G1 X39.09 Y165.804 E99.23736
G1 X24.194 Y150.907 E99.93805
G1 X24.194 Y150.342 E99.95684
G1 X39.656 Y165.804 E100.68413
G1 X40.222 Y165.804 E100.70295
G1 X24.194 Y149.776 E101.45686
G1 X24.194 Y149.21 E101.47569
G1 X40.788 Y165.804 E102.25622
G1 X41.353 Y165.804 E102.27501
G1 X24.194 Y148.645 E103.08212
G1 X24.194 Y148.079 E103.10094
G1 X41.919 Y165.804 E103.93467
G1 X42.485 Y165.804 E103.9535
G1 X24.194 Y147.513 E104.81385
G1 X24.194 Y146.948 E104.83264
G1 X43.05 Y165.804 E105.71957
G1 X43.616 Y165.804 E105.73839
G1 X24.194 Y146.382 E106.65195
G1 X24.194 Y145.816 E106.67077
G1 X44.182 Y165.804 E107.61094
G1 X44.747 Y165.804 E107.62974
G1 X24.194 Y145.251 E108.59649
G1 X24.194 Y144.685 E108.61531
G1 X45.313 Y165.804 E109.60868
G1 X45.879 Y165.804 E109.62751
G1 X24.194 Y144.119 E110.64751
G1 X24.194 Y143.553 E110.66633
G1 X46.444 Y165.804 E111.71293
G1 X47.01 Y165.804 E111.73175
G1 X24.194 Y142.988 E112.80495
G1 X24.194 Y142.422 E112.82377
G1 X47.576 Y165.804 E113.92359
G1 X48.141 Y165.804 E113.94238
G1 X24.194 Y141.856 E115.0688
G1 X24.194 Y141.291 E115.08759
G1 X48.707 Y165.804 E116.24061
G1 X49.273 Y165.804 E116.25943
G1 X24.194 Y140.725 E117.43907
G1 X24.194 Y140.159 E117.4579
G1 X49.839 Y165.804 E118.66416
G1 X50.404 Y165.804 E118.68295
G1 X24.194 Y139.594 E119.91579
G1 X24.194 Y139.028 E119.93461
G1 X50.97 Y165.804 E121.19407
G1 X51.536 Y165.804 E121.2129
G1 X24.194 Y138.462 E122.49898
G1 X24.194 Y137.897 E122.51778
G1 X52.101 Y165.804 E123.83044
G1 X52.667 Y165.804 E123.84926
G1 X24.194 Y137.331 E125.18854
G1 X24.194 Y136.765 E125.20737
G1 X53.233 Y165.804 E126.57327
G1 X53.798 Y165.804 E126.59207
G1 X24.194 Y136.2 E127.98455
G1 X24.194 Y135.634 E128.00337
G1 X54.364 Y165.804 E129.42248
G1 X54.93 Y165.804 E129.4413
G1 X24.194 Y135.068 E130.88703
G1 X24.194 Y134.503 E130.90582
G1 X55.495 Y165.804 E132.37812
G1 X56.061 Y165.804 E132.39695
G1 X24.194 Y133.937 E133.89588
G1 X24.194 Y133.371 E133.9147
G1 X56.627 Y165.804 E135.44025
G1 X57.192 Y165.804 E135.45904
G1 X24.194 Y132.805 E137.01119
G1 X24.194 Y132.24 E137.02998
G1 X57.758 Y165.804 E138.60873
G1 X58.324 Y165.804 E138.62755
G1 X24.194 Y131.674 E140.23293
G1 X24.194 Y131.108 E140.25175
G1 X58.889 Y165.804 E141.88372
G1 X59.455 Y165.804 E141.90255
G1 X24.194 Y130.543 E143.56112
G1 X24.194 Y129.977 E143.57994
G1 X60.021 Y165.804 E145.26513
G1 X60.587 Y165.804 E145.28396
G1 X24.194 Y129.411 E146.99577
G1 X24.194 Y128.846 E147.01457
G1 X61.152 Y165.804 E148.75296
G1 X61.718 Y165.804 E148.77178
G1 X24.194 Y128.28 E150.5368
G1 X24.194 Y127.714 E150.55562
G1 X62.284 Y165.804 E152.34726
G1 X62.849 Y165.804 E152.36605
G1 X24.194 Y127.149 E154.18426
G1 X24.194 Y126.583 E154.20309
G1 X63.415 Y165.804 E156.04792
G1 X63.981 Y165.804 E156.06675
G1 X24.194 Y126.017 E157.93821
G1 X24.194 Y125.452 E157.957
G1 X64.546 Y165.804 E159.85503
G1 X65.112 Y165.804 E159.87386
G1 X24.194 Y124.886 E161.79852
G1 X24.194 Y124.32 E161.81734
G1 X65.678 Y165.804 E163.76862
G1 X66.243 Y165.804 E163.78741
G1 X24.194 Y123.755 E165.76527
G1 X24.194 Y123.189 E165.78409
G1 X66.809 Y165.804 E167.78857
G1 X67.375 Y165.804 E167.8074
G1 X24.194 Y122.623 E169.8385
G1 X24.194 Y122.057 E169.85733
G1 X67.94 Y165.804 E171.91503
G1 X68.506 Y165.804 E171.93385
G1 X24.194 Y121.492 E174.01815
G1 X24.194 Y120.926 E174.03698
G1 X69.072 Y165.804 E176.1479
G1 X69.637 Y165.804 E176.16669
G1 X24.194 Y120.36 E178.30422
G1 X24.194 Y119.795 E178.32301
G1 X70.203 Y165.804 E180.48713
G1 X70.769 Y165.804 E180.50596
G1 X24.194 Y119.229 E182.6967
G1 X24.194 Y118.663 E182.71553
G1 X71.335 Y165.804 E184.93289
G1 X71.9 Y165.804 E184.95169
G1 X24.194 Y118.098 E187.19563
G1 X24.194 Y117.532 E187.21446
G1 X72.466 Y165.804 E189.48502
G1 X73.032 Y165.804 E189.50385
G1 X24.194 Y116.966 E191.80104
G1 X24.194 Y116.401 E191.81983
G1 X73.597 Y165.804 E194.14359
G1 X74.163 Y165.804 E194.16242
G1 X24.194 Y115.835 E196.51281
G1 X24.194 Y115.269 E196.53163
G1 X74.729 Y165.804 E198.90865
G1 X75.294 Y165.804 E198.92744
G1 X24.194 Y114.704 E201.33102
G1 X24.194 Y114.138 E201.34985
G1 X75.86 Y165.804 E203.78006
G1 X76.426 Y165.804 E203.79889
G1 X24.194 Y113.572 E206.25572
G1 X24.194 Y113.006 E206.27454
G1 X76.991 Y165.804 E208.75798
G1 X77.557 Y165.804 E208.7768
G1 X24.194 Y112.441 E211.28683
G1 X24.194 Y111.875 E211.30566
G1 X78.123 Y165.804 E213.84231
G1 X78.688 Y165.804 E213.86111
G1 X24.194 Y111.309 E216.42436
G1 X24.194 Y110.744 E216.44315
G1 X79.254 Y165.804 E219.03301
G1 X79.82 Y165.804 E219.05183
G1 X24.194 Y110.178 E221.66831
G1 X24.194 Y109.612 E221.68713
G1 X80.386 Y165.804 E224.33023
G1 X80.951 Y165.804 E224.34902
G1 X24.194 Y109.047 E227.0187
G1 X24.194 Y108.481 E227.03752
G1 X81.517 Y165.804 E229.73382
G1 X82.083 Y165.804 E229.75265
G1 X24.194 Y107.915 E232.47557
G1 X24.194 Y107.35 E232.49436
G1 X82.648 Y165.804 E235.24386
G1 X83.214 Y165.804 E235.26268
G1 X24.194 Y106.784 E238.0388
G1 X24.194 Y106.218 E238.05763
G1 X83.78 Y165.804 E240.86037
G1 X84.345 Y165.804 E240.87916
G1 X24.194 Y105.653 E243.70848
G1 X24.194 Y105.087 E243.72731
G1 X84.911 Y165.804 E246.58325
G1 X85.477 Y165.804 E246.60207
G1 X24.194 Y104.521 E249.48464
G1 X24.194 Y103.956 E249.50343
G1 X86.042 Y165.804 E252.41257
G1 X86.608 Y165.804 E252.4314
G1 X24.194 Y103.39 E255.36716
G1 X24.194 Y102.824 E255.38598
G1 X87.174 Y165.804 E258.34837
G1 X87.739 Y165.804 E258.36716
G1 X24.194 Y102.258 E261.35615
G1 X24.194 Y101.693 E261.37494
G1 X88.305 Y165.804 E264.39052
G1 X88.871 Y165.804 E264.40935
G1 X24.194 Y101.127 E267.45156
G1 X24.194 Y100.561 E267.47038
G1 X89.436 Y165.804 E270.53919
G1 X90.002 Y165.804 E270.55801
G1 X24.194 Y99.996 E273.65342
G1 X24.194 Y99.43 E273.67225
G1 X90.568 Y165.804 E276.79428
G1 X91.134 Y165.804 E276.8131
G1 X24.194 Y98.864 E279.96175
G1 X24.194 Y98.299 E279.98055
G1 X91.699 Y165.804 E283.15577
G1 X92.265 Y165.804 E283.1746
G1 X24.194 Y97.733 E286.37645
G1 X24.194 Y97.167 E286.39528
G1 X92.831 Y165.804 E289.62375
G1 X93.396 Y165.804 E289.64254
G1 X24.194 Y96.602 E292.89759
G1 X24.194 Y96.036 E292.91642
G1 X93.962 Y165.804 E296.19809
G1 X94.528 Y165.804 E296.21691
G1 X24.194 Y95.47 E299.52521
G1 X24.194 Y94.905 E299.544
G1 X95.093 Y165.804 E302.87887
G1 X95.659 Y165.804 E302.8977
G1 X24.194 Y94.339 E306.25919
G1 X24.194 Y93.773 E306.27802
G1 X96.225 Y165.804 E309.66614
G1 X96.79 Y165.804 E309.68493
G1 X24.194 Y93.207 E313.09964
G1 X24.194 Y92.642 E313.11844
G1 X97.356 Y165.804 E316.55975
G1 X97.922 Y165.804 E316.57858
G1 X24.194 Y92.076 E320.04652
G1 X24.194 Y91.51 E320.06534
G1 X98.487 Y165.804 E323.55988
G1 X99.053 Y165.804 E323.57871
G1 X24.194 Y90.945 E327.09984
G1 X24.194 Y90.379 E327.11867
G1 X99.619 Y165.804 E330.66643
G1 X100.185 Y165.804 E330.68526
G1 X24.194 Y89.813 E334.25964
G1 X24.194 Y89.248 E334.27843
G1 X100.75 Y165.804 E337.87939
G1 X101.316 Y165.804 E337.89822
G1 X24.194 Y88.682 E341.5258
G1 X24.194 Y88.116 E341.54462
G1 X101.882 Y165.804 E345.19883
G1 X102.447 Y165.804 E345.21762
G1 X24.194 Y87.551 E348.8984
G1 X24.194 Y86.985 E348.91723
G1 X103.013 Y165.804 E352.62463
G1 X103.579 Y165.804 E352.64346
G1 X24.194 Y86.419 E356.37748
G1 X24.194 Y85.854 E356.39628
G1 X104.144 Y165.804 E360.15688
G1 X104.71 Y165.804 E360.1757
G1 X24.194 Y85.288 E363.96293
G1 X24.194 Y84.722 E363.98175
G1 X105.276 Y165.804 E367.7956
G1 X105.841 Y165.804 E367.8144
G1 X24.194 Y84.157 E371.65482
G1 X24.194 Y83.591 E371.67365
G1 X106.407 Y165.804 E375.54069
G1 X106.973 Y165.804 E375.55952
G1 X24.194 Y83.025 E379.45319
G1 X24.194 Y82.459 E379.47201
G1 X107.538 Y165.804 E383.39228
G1 X108.104 Y165.804 E383.41111
G1 X24.194 Y81.894 E387.35798
G1 X24.194 Y81.328 E387.3768
G1 X108.67 Y165.804 E391.35029
G1 X109.235 Y165.804 E391.36909
G1 X24.194 Y80.762 E395.36918
G1 X24.194 Y80.197 E395.38797
G1 X109.801 Y165.804 E399.41466
G1 X110.367 Y165.804 E399.43349
G1 X24.194 Y79.631 E403.4868
G1 X24.194 Y79.065 E403.50563
G1 X110.933 Y165.804 E407.58556
G1 X111.498 Y165.804 E407.60435
G1 X24.194 Y78.5 E411.71087
G1 X24.194 Y77.934 E411.72969
G1 X112.064 Y165.804 E415.86283
G1 X112.63 Y165.804 E415.88165
G1 X24.194 Y77.368 E420.04141
G1 X24.194 Y76.803 E420.0602
G1 X113.195 Y165.804 E424.24654
G1 X113.761 Y165.804 E424.26536
G1 X24.194 Y76.237 E428.47832
G1 X24.194 Y75.671 E428.49714
G1 X114.327 Y165.804 E432.73672
G1 X114.892 Y165.804 E432.75552
G1 X24.194 Y75.106 E437.02167
G1 X24.194 Y74.54 E437.0405
G1 X115.458 Y165.804 E441.33328
G1 X116.024 Y165.804 E441.3521
G1 X24.194 Y73.974 E445.6715
G1 X24.194 Y73.408 E445.69033
G1 X116.589 Y165.804 E450.03633
G1 X117.155 Y165.804 E450.05515
G1 X24.194 Y72.843 E454.42775
G1 X24.194 Y72.277 E454.44658
G1 X117.721 Y165.804 E458.8458
G1 X118.286 Y165.804 E458.8646
G1 X24.194 Y71.711 E463.29042
G1 X24.194 Y71.146 E463.30921
G1 X118.852 Y165.804 E467.76163
G1 X119.418 Y165.804 E467.78046
G1 X24.194 Y70.58 E472.2595
G1 X24.194 Y70.014 E472.27833
G1 X119.983 Y165.804 E476.78397
G1 X120.549 Y165.804 E476.8028
G1 X24.194 Y69.449 E481.33504
G1 X24.194 Y68.883 E481.35387
G1 X121.115 Y165.804 E485.91273
G1 X121.681 Y165.804 E485.93156
G1 X24.194 Y68.317 E490.51705
G1 X24.194 Y67.752 E490.53584
G1 X122.246 Y165.804 E495.14791
G1 X122.812 Y165.804 E495.16673
G1 X24.194 Y67.186 E499.80542
G1 X24.194 Y66.62 E499.82424
G1 X123.378 Y165.804 E504.48956
G1 X123.943 Y165.804 E504.50835
G1 X24.194 Y66.055 E509.20023
G1 X24.194 Y65.489 E509.21906
G1 X124.509 Y165.804 E513.93757
G1 X125.075 Y165.804 E513.95639
G1 X24.194 Y64.923 E518.70153
G1 X24.194 Y64.358 E518.72032
G1 X125.64 Y165.804 E523.49203
G1 X126.206 Y165.804 E523.51085
G1 X24.194 Y63.792 E528.30919
G1 X24.194 Y63.226 E528.32801
G1 X126.772 Y165.804 E533.15297
G1 X127.337 Y165.804 E533.17176
G1 X24.194 Y62.66 E538.02331
G1 X24.194 Y62.095 E538.0421
G1 X127.903 Y165.804 E542.92026
G1 X128.469 Y165.804 E542.93908
G1 X24.194 Y61.529 E547.84386
G1 X24.194 Y60.963 E547.86268
G1 X129.034 Y165.804 E552.79406
G1 X129.6 Y165.804 E552.81288
G1 X24.194 Y60.398 E557.77086
G1 X24.194 Y59.832 E557.78968
G1 X130.166 Y165.804 E562.77428
G1 X130.732 Y165.804 E562.79311
G1 X24.194 Y59.266 E567.80433
G1 X24.194 Y58.701 E567.82312
G1 X131.297 Y165.804 E572.86092
G1 X131.863 Y165.804 E572.87974
G1 X24.194 Y58.135 E577.94416
G1 X24.194 Y57.569 E577.96299
G1 X132.429 Y165.804 E583.05403
G1 X132.994 Y165.804 E583.07282
G1 X24.194 Y57.004 E588.19044
G1 X24.194 Y56.438 E588.20927
G1 X133.56 Y165.804 E593.35351
G1 X134.126 Y165.804 E593.37233
G1 X24.194 Y55.872 E598.5432
G1 X24.194 Y55.307 E598.56199
G1 X134.691 Y165.804 E603.75943
G1 X135.257 Y165.804 E603.77825
G1 X24.194 Y54.741 E609.00232
G1 X24.194 Y54.175 E609.02114
G1 X135.823 Y165.804 E614.27183
G1 X136.388 Y165.804 E614.29062
G1 X24.194 Y53.61 E619.56788
G1 X24.194 Y53.044 E619.58671
G1 X136.954 Y165.804 E624.89059
G1 X137.52 Y165.804 E624.90942
G1 X24.194 Y52.478 E630.23992
G1 X24.194 Y51.912 E630.25875
