;FLAVOR:Marlin
;TIME:11054
;Filament used: 16.0933m
;Layer height: 0.2
;MINX:19.98
;MINY:40.98
;MINZ:0.2
;MAXX:230.02
;MAXY:169.02
;MAXZ:5
;Generated with Cura_SteamEngine 4.11.0
M82 ;absolute extrusion mode
;Sliced at: Fri 22-10-2021 10:45:59
G21
G90
M82
M220 S100
M221 S100
G28
M190 S60
M109 S210
G1 F600 Z15
G92 E0
G1 F300 E10
M117 Printing...
;

G92 E0
;T0                             ;switch to extruder 1
;G92 E0                      ;reset extruder distance
;G1 F2000 E93           ;load filament
;G92 E0                      ;reset extruder distance
;M104 S210
;

G92 E0
G1 F1500 E-4
;LAYER_COUNT:25
;LAYER:0
M107
G0 F2400 X21.784 Y41.461 Z0.2
;TYPE:SKIRT
G1 F1500 E0
G1 X22.238 Y41.236 E0.01854
G1 X22.723 Y41.086 E0.03711
G1 X23.493 Y40.992 E0.06549
G1 X23.912 Y40.981 E0.08083
G1 X225.839 Y40.98 E7.46856
G1 X226.531 Y40.99 E7.49388
G1 X227.035 Y41.038 E7.5124
G1 X227.656 Y41.211 E7.53599
G1 X227.876 Y41.297 E7.54463
G1 X228.333 Y41.518 E7.5632
G1 X228.749 Y41.808 E7.58175
G1 X229.114 Y42.16 E7.60031
G1 X229.419 Y42.565 E7.61886
G1 X229.68 Y43.066 E7.63952
G1 X229.766 Y43.274 E7.64776
G1 X229.922 Y43.756 E7.66629
G1 X230.01 Y44.459 E7.69221
G1 X230.019 Y45.153 E7.71761
G1 X230.02 Y164.82 E12.09576
G1 X230.012 Y165.415 E12.11753
G1 X229.966 Y165.962 E12.13762
G1 X229.871 Y166.46 E12.15616
G1 X229.698 Y166.937 E12.17473
G1 X229.453 Y167.38 E12.19325
G1 X229.141 Y167.78 E12.21181
G1 X228.637 Y168.24 E12.23677
G1 X228.224 Y168.534 E12.25532
G1 X227.77 Y168.76 E12.27388
G1 X227.287 Y168.912 E12.2924
G1 X226.507 Y169.008 E12.32115
G1 X226.088 Y169.019 E12.33649
G1 X24.16 Y169.02 E19.72426
G1 X23.469 Y169.01 E19.74954
G1 X22.964 Y168.962 E19.7681
G1 X22.344 Y168.789 E19.79165
G1 X22.124 Y168.703 E19.80029
G1 X21.667 Y168.482 E19.81886
G1 X21.251 Y168.192 E19.83742
G1 X20.886 Y167.84 E19.85597
G1 X20.581 Y167.435 E19.87452
G1 X20.299 Y166.881 E19.89726
G1 X20.213 Y166.662 E19.90587
G1 X20.065 Y166.177 E19.92442
G1 X19.99 Y165.528 E19.94832
G1 X19.981 Y164.806 E19.97474
G1 X19.98 Y45.148 E24.35257
G1 X19.988 Y44.582 E24.37328
G1 X20.034 Y44.039 E24.39321
G1 X20.129 Y43.541 E24.41176
G1 X20.301 Y43.064 E24.43031
G1 X20.546 Y42.62 E24.44887
G1 X20.858 Y42.22 E24.46743
G1 X21.37 Y41.754 E24.49276
G1 X21.784 Y41.461 E24.51131
G1 F1500 E20.51131
;MESH:Box_cover.stl
G0 F2400 X23.814 Y44.815
G0 X24.2 Y45.201
;TYPE:WALL-INNER
G1 F1500 E24.51131
G1 X24.399 Y45.201 E24.51793
G1 X225.799 Y45.2 E31.21652
G1 X225.8 Y164.6 E35.18778
G1 X225.8 Y164.799 E35.1944
G1 X225.601 Y164.799 E35.19868
G1 X24.201 Y164.799 E41.89727
G1 X24.2 Y45.4 E45.8685
G1 X24.2 Y45.201 E45.87278
G0 F2400 X23.8 Y44.801
G1 F1500 X23.999 Y44.801 E45.8794
G1 X226.199 Y44.8 E52.6046
G1 X226.2 Y165 E56.60247
G1 X226.2 Y165.199 E56.60909
G1 X226.001 Y165.199 E56.61337
G1 X23.801 Y165.199 E63.33857
G1 X23.8 Y45 E67.33641
G1 X23.8 Y44.801 E67.34069
G0 F2400 X23.457 Y44.409
;TYPE:WALL-OUTER
G1 F1500 X23.499 Y44.401 E67.34211
G1 X23.627 Y44.401 E67.34637
G1 X226.49 Y44.4 E74.09362
G1 X226.591 Y44.458 E74.09749
G1 X226.599 Y44.5 E74.09891
G1 X226.6 Y165.366 E78.11893
G1 X226.6 Y165.494 E78.12319
G1 X226.543 Y165.591 E78.12693
G1 X226.501 Y165.599 E78.12835
G1 X226.373 Y165.599 E78.13261
G1 X23.489 Y165.599 E84.88056
G1 X23.403 Y165.521 E84.88442
G1 X23.401 Y165.5 E84.88512
G1 X23.4 Y44.634 E88.90514
G1 X23.4 Y44.506 E88.9094
G1 X23.457 Y44.409 E88.91314
G0 F2400 X23.499 Y44.401
G0 X23.627 Y44.401
G0 X23.657 Y44.401
G0 X23.841 Y44.842
G1 F1500 E84.91314
G0 F2400 X23.901 Y44.843
G0 X24.581 Y164.418
;TYPE:SKIN
G1 F1500 E88.91314
G1 X24.694 Y164.418 E88.9169
G1 X24.58 Y164.304 E88.92226
G0 F2400 X24.694 Y164.418
G1 F1500 X25.259 Y164.418 E88.94106
G1 X24.58 Y163.739 E88.97299
G1 X24.58 Y163.173 E88.99182
G1 X25.825 Y164.418 E89.05038
G1 X26.391 Y164.418 E89.0692
G1 X24.58 Y162.607 E89.15439
G1 X24.58 Y162.042 E89.17318
G1 X26.957 Y164.418 E89.28496
G1 X27.522 Y164.418 E89.30376
G1 X24.58 Y161.476 E89.44214
G1 X24.58 Y160.91 E89.46096
G1 X28.088 Y164.418 E89.62597
G1 X28.654 Y164.418 E89.64479
G1 X24.58 Y160.344 E89.83642
G1 X24.58 Y159.779 E89.85522
G1 X29.219 Y164.418 E90.07342
G1 X29.785 Y164.418 E90.09224
G1 X24.58 Y159.213 E90.33707
G1 X24.58 Y158.647 E90.3559
G1 X30.351 Y164.418 E90.62735
G1 X30.916 Y164.418 E90.64614
G1 X24.58 Y158.082 E90.94417
G1 X24.58 Y157.516 E90.96299
G1 X31.482 Y164.418 E91.28764
G1 X32.048 Y164.418 E91.30646
G1 X24.58 Y156.95 E91.65774
G1 X24.58 Y156.385 E91.67653
G1 X32.613 Y164.418 E92.05438
G1 X33.179 Y164.418 E92.0732
G1 X24.58 Y155.819 E92.47767
G1 X24.58 Y155.253 E92.4965
G1 X33.745 Y164.418 E92.92759
G1 X34.31 Y164.418 E92.94638
G1 X24.58 Y154.688 E93.40405
G1 X24.58 Y154.122 E93.42288
G1 X34.876 Y164.418 E93.90717
G1 X35.442 Y164.418 E93.92599
G1 X24.58 Y153.556 E94.43691
G1 X24.58 Y152.991 E94.4557
G1 X36.007 Y164.418 E94.99319
G1 X36.573 Y164.418 E95.01202
G1 X24.58 Y152.425 E95.57613
G1 X24.58 Y151.859 E95.59496
G1 X37.139 Y164.418 E96.18569
G1 X37.705 Y164.418 E96.20452
G1 X24.58 Y151.293 E96.82188
G1 X24.58 Y150.728 E96.84067
G1 X38.27 Y164.418 E97.48461
G1 X38.836 Y164.418 E97.50343
G1 X24.58 Y150.162 E98.17399
G1 X24.58 Y149.596 E98.19282
G1 X39.402 Y164.418 E98.89
G1 X39.967 Y164.418 E98.90879
G1 X24.58 Y149.031 E99.63255
G1 X24.58 Y148.465 E99.65137
G1 X40.533 Y164.418 E100.40175
G1 X41.099 Y164.418 E100.42058
G1 X24.58 Y147.899 E101.19758
G1 X24.58 Y147.334 E101.21637
G1 X41.664 Y164.418 E102.01995
G1 X42.23 Y164.418 E102.03878
G1 X24.58 Y146.768 E102.86898
G1 X24.58 Y146.202 E102.8878
G1 X42.796 Y164.418 E103.74463
G1 X43.361 Y164.418 E103.76342
G1 X24.58 Y145.637 E104.64682
G1 X24.58 Y145.071 E104.66565
G1 X43.927 Y164.418 E105.57567
G1 X44.493 Y164.418 E105.5945
G1 X24.58 Y144.505 E106.53114
G1 X24.58 Y143.94 E106.54993
G1 X45.058 Y164.418 E107.51316
G1 X45.624 Y164.418 E107.53198
G1 X24.58 Y143.374 E108.52183
G1 X24.58 Y142.808 E108.54065
G1 X46.19 Y164.418 E109.55712
G1 X46.756 Y164.418 E109.57595
G1 X24.58 Y142.243 E110.61901
G1 X24.58 Y141.677 E110.63784
G1 X47.321 Y164.418 E111.7075
G1 X47.887 Y164.418 E111.72633
G1 X24.58 Y141.111 E112.82262
G1 X24.58 Y140.545 E112.84145
G1 X48.453 Y164.418 E113.96436
G1 X49.018 Y164.418 E113.98315
G1 X24.58 Y139.98 E115.13264
G1 X24.58 Y139.414 E115.15146
G1 X49.584 Y164.418 E116.32758
G1 X50.15 Y164.418 E116.3464
G1 X24.58 Y138.848 E117.54913
G1 X24.58 Y138.283 E117.56793
G1 X50.715 Y164.418 E118.79724
G1 X51.281 Y164.418 E118.81606
G1 X24.58 Y137.717 E120.072
G1 X24.58 Y137.151 E120.09082
G1 X51.847 Y164.418 E121.37338
G1 X52.412 Y164.418 E121.39217
G1 X24.58 Y136.586 E122.7013
G1 X24.58 Y136.02 E122.72013
G1 X52.978 Y164.418 E124.05588
G1 X53.544 Y164.418 E124.07471
G1 X24.58 Y135.454 E125.43708
G1 X24.58 Y134.889 E125.45588
G1 X54.109 Y164.418 E126.84483
G1 X54.675 Y164.418 E126.86365
G1 X24.58 Y134.323 E128.27923
G1 X24.58 Y133.757 E128.29806
G1 X55.241 Y164.418 E129.74026
G1 X55.806 Y164.418 E129.75905
G1 X24.58 Y133.192 E131.22782
G1 X24.58 Y132.626 E131.24665
G1 X56.372 Y164.418 E132.74205
G1 X56.938 Y164.418 E132.76087
G1 X24.58 Y132.06 E134.28289
G1 X24.58 Y131.494 E134.30172
G1 X57.504 Y164.418 E135.85036
G1 X58.069 Y164.418 E135.86915
G1 X24.58 Y130.929 E137.44437
G1 X24.58 Y130.363 E137.4632
G1 X58.635 Y164.418 E139.06504
G1 X59.201 Y164.418 E139.08387
G1 X24.58 Y129.797 E140.71233
G1 X24.58 Y129.232 E140.73112
G1 X59.766 Y164.418 E142.38617
G1 X60.332 Y164.418 E142.40499
G1 X24.58 Y128.666 E144.08666
G1 X24.58 Y128.1 E144.10548
G1 X60.898 Y164.418 E145.81377
G1 X61.463 Y164.418 E145.83256
G1 X24.58 Y127.535 E147.56742
G1 X24.58 Y126.969 E147.58625
G1 X62.029 Y164.418 E149.34774
G1 X62.595 Y164.418 E149.36656
G1 X24.58 Y126.403 E151.15467
G1 X24.58 Y125.838 E151.17346
G1 X63.16 Y164.418 E152.98815
G1 X63.726 Y164.418 E153.00697
G1 X24.58 Y125.272 E154.84828
G1 X24.58 Y124.706 E154.8671
G1 X64.292 Y164.418 E156.73504
G1 X64.857 Y164.418 E156.75383
G1 X24.58 Y124.141 E158.64833
G1 X24.58 Y123.575 E158.66716
G1 X65.423 Y164.418 E160.58829
G1 X65.989 Y164.418 E160.60711
G1 X24.58 Y123.009 E162.55487
G1 X24.58 Y122.444 E162.57366
G1 X66.555 Y164.418 E164.54801
G1 X67.12 Y164.418 E164.5668
G1 X24.58 Y121.878 E166.56775
G1 X24.58 Y121.312 E166.58658
G1 X67.686 Y164.418 E168.61415
G1 X68.252 Y164.418 E168.63298
G1 X24.58 Y120.746 E170.68718
G1 X24.58 Y120.181 E170.70597
G1 X68.817 Y164.418 E172.78674
G1 X69.383 Y164.418 E172.80557
G1 X24.58 Y119.615 E174.91296
G1 X24.58 Y119.049 E174.93179
G1 X69.949 Y164.418 E177.0658
G1 X70.514 Y164.418 E177.0846
G1 X24.58 Y118.484 E179.24519
G1 X24.58 Y117.918 E179.26402
G1 X71.08 Y164.418 E181.45123
G1 X71.646 Y164.418 E181.47006
G1 X24.58 Y117.352 E183.6839
G1 X24.58 Y116.787 E183.70269
G1 X72.211 Y164.418 E185.94311
G1 X72.777 Y164.418 E185.96193
G1 X24.58 Y116.221 E188.22897
G1 X24.58 Y115.655 E188.2478
G1 X73.343 Y164.418 E190.54146
G1 X73.908 Y164.418 E190.56025
G1 X24.58 Y115.09 E192.88049
G1 X24.58 Y114.524 E192.89931
G1 X74.474 Y164.418 E195.24618
G1 X75.04 Y164.418 E195.265
G1 X24.58 Y113.958 E197.63848
G1 X24.58 Y113.393 E197.65728
G1 X75.605 Y164.418 E200.05734
G1 X76.171 Y164.418 E200.07616
G1 X24.58 Y112.827 E202.50284
G1 X24.58 Y112.261 E202.52167
G1 X76.737 Y164.418 E204.97497
G1 X77.303 Y164.418 E204.9938
G1 X24.58 Y111.696 E207.4737
G1 X24.58 Y111.13 E207.49253
G1 X77.868 Y164.418 E209.99903
G1 X78.434 Y164.418 E210.01786
G1 X24.58 Y110.564 E212.55099
G1 X24.58 Y109.998 E212.56981
G1 X79 Y164.418 E215.12956
G1 X79.565 Y164.418 E215.14835
G1 X24.58 Y109.433 E217.73468
G1 X24.58 Y108.867 E217.7535
G1 X80.131 Y164.418 E220.36645
G1 X80.697 Y164.418 E220.38528
G1 X24.58 Y108.301 E223.02485
G1 X24.58 Y107.736 E223.04364
G1 X81.262 Y164.418 E225.70979
G1 X81.828 Y164.418 E225.72861
G1 X24.58 Y107.17 E228.42138
G1 X24.58 Y106.604 E228.44021
G1 X82.394 Y164.418 E231.1596
G1 X82.959 Y164.418 E231.1784
G1 X24.58 Y106.039 E233.92436
G1 X24.58 Y105.473 E233.94319
G1 X83.525 Y164.418 E236.71578
G1 X84.091 Y164.418 E236.73461
G1 X24.58 Y104.907 E239.53382
G1 X24.58 Y104.342 E239.55261
G1 X84.656 Y164.418 E242.3784
G1 X85.222 Y164.418 E242.39723
G1 X24.58 Y103.776 E245.24964
G1 X24.58 Y103.21 E245.26847
G1 X85.788 Y164.418 E248.14751
G1 X86.354 Y164.418 E248.16633
G1 X24.58 Y102.645 E251.07197
G1 X24.58 Y102.079 E251.09079
G1 X86.919 Y164.418 E254.02303
G1 X87.485 Y164.418 E254.04185
G1 X24.58 Y101.513 E257.00071
G1 X24.58 Y100.947 E257.01954
G1 X88.051 Y164.418 E260.00502
G1 X88.616 Y164.418 E260.02381
G1 X24.58 Y100.382 E263.03587
G1 X24.58 Y99.816 E263.05469
G1 X89.182 Y164.418 E266.09337
G1 X89.748 Y164.418 E266.1122
G1 X24.58 Y99.25 E269.1775
G1 X24.58 Y98.685 E269.19629
G1 X90.313 Y164.418 E272.28817
G1 X90.879 Y164.418 E272.307
G1 X24.58 Y98.119 E275.4255
G1 X24.58 Y97.553 E275.44432
G1 X91.445 Y164.418 E278.58945
G1 X92.01 Y164.418 E278.60824
G1 X24.58 Y96.988 E281.77994
G1 X24.58 Y96.422 E281.79877
G1 X92.576 Y164.418 E284.99709
G1 X93.142 Y164.418 E285.01591
G1 X24.58 Y95.856 E288.24086
G1 X24.58 Y95.291 E288.25965
G1 X93.707 Y164.418 E291.51117
G1 X94.273 Y164.418 E291.53
G1 X24.58 Y94.725 E294.80814
G1 X24.58 Y94.159 E294.82697
G1 X94.839 Y164.418 E298.13174
G1 X95.404 Y164.418 E298.15053
G1 X24.58 Y93.594 E301.48187
G1 X24.58 Y93.028 E301.5007
G1 X95.97 Y164.418 E304.85867
G1 X96.536 Y164.418 E304.87749
G1 X24.58 Y92.462 E308.26208
G1 X24.58 Y91.897 E308.28087
G1 X97.102 Y164.418 E311.69206
G1 X97.667 Y164.418 E311.71085
G1 X24.58 Y91.331 E315.14864
G1 X24.58 Y90.765 E315.16747
G1 X98.233 Y164.418 E318.63188
G1 X98.799 Y164.418 E318.6507
G1 X24.58 Y90.199 E322.14174
G1 X24.58 Y89.634 E322.16053
G1 X99.364 Y164.418 E325.67814
G1 X99.93 Y164.418 E325.69696
G1 X24.58 Y89.068 E329.2412
G1 X24.58 Y88.502 E329.26002
G1 X100.496 Y164.418 E332.83088
G1 X101.061 Y164.418 E332.84967
G1 X24.58 Y87.937 E336.4471
G1 X24.58 Y87.371 E336.46593
G1 X101.627 Y164.418 E340.08998
G1 X102.193 Y164.418 E340.10881
G1 X24.58 Y86.805 E343.75949
G1 X24.58 Y86.24 E343.77828
G1 X102.758 Y164.418 E347.45553
G1 X103.324 Y164.418 E347.47436
G1 X24.58 Y85.674 E351.17823
G1 X24.58 Y85.108 E351.19706
G1 X103.89 Y164.418 E354.92756
G1 X104.455 Y164.418 E354.94635
G1 X24.58 Y84.543 E358.70342
G1 X24.58 Y83.977 E358.72225
G1 X105.021 Y164.418 E362.50595
G1 X105.587 Y164.418 E362.52477
G1 X24.58 Y83.411 E366.33509
G1 X24.58 Y82.846 E366.35389
G1 X106.152 Y164.418 E370.19078
G1 X106.718 Y164.418 E370.20961
G1 X24.58 Y82.28 E374.07313
G1 X24.58 Y81.714 E374.09195
G1 X107.284 Y164.418 E377.98209
G1 X107.85 Y164.418 E378.00092
G1 X24.58 Y81.148 E381.91769
G1 X24.58 Y80.583 E381.93648
G1 X108.415 Y164.418 E385.87982
G1 X108.981 Y164.418 E385.89864
G1 X24.58 Y80.017 E389.86861
G1 X24.58 Y79.451 E389.88743
G1 X109.547 Y164.418 E393.88402
G1 X110.112 Y164.418 E393.90281
G1 X24.58 Y78.886 E397.92598
G1 X24.58 Y78.32 E397.9448
G1 X110.678 Y164.418 E401.99459
G1 X111.244 Y164.418 E402.01341
G1 X24.58 Y77.754 E406.08982
G1 X24.58 Y77.189 E406.10861
G1 X111.809 Y164.418 E410.2116
G1 X112.375 Y164.418 E410.23042
G1 X24.58 Y76.623 E414.36003
G1 X24.58 Y76.057 E414.37886
G1 X112.941 Y164.418 E418.53509
G1 X113.506 Y164.418 E418.55388
G1 X24.58 Y75.492 E422.73668
G1 X24.58 Y74.926 E422.75551
G1 X114.072 Y164.418 E426.96494
G1 X114.638 Y164.418 E426.98376
G1 X24.58 Y74.36 E431.21982
G1 X24.58 Y73.795 E431.23861
G1 X115.203 Y164.418 E435.50124
G1 X115.769 Y164.418 E435.52006
G1 X24.58 Y73.229 E439.80931
G1 X24.58 Y72.663 E439.82814
G1 X116.335 Y164.418 E444.14401
G1 X116.901 Y164.418 E444.16284
G1 X24.58 Y72.098 E448.50531
G1 X24.58 Y71.532 E448.52414
G1 X117.466 Y164.418 E452.89321
G1 X118.032 Y164.418 E452.91203
G1 X24.58 Y70.966 E457.30773
G1 X24.58 Y70.4 E457.32655
G1 X118.598 Y164.418 E461.74887
G1 X119.163 Y164.418 E461.76767
G1 X24.58 Y69.835 E466.21656
G1 X24.58 Y69.269 E466.23538
G1 X119.729 Y164.418 E470.7109
G1 X120.295 Y164.418 E470.72973
G1 X24.58 Y68.703 E475.23187
G1 X24.58 Y68.138 E475.25066
G1 X120.86 Y164.418 E479.77938
G1 X121.426 Y164.418 E479.7982
G1 X24.58 Y67.572 E484.35354
G1 X24.58 Y67.006 E484.37236
G1 X121.992 Y164.418 E488.95433
G1 X122.557 Y164.418 E488.97312
G1 X24.58 Y66.441 E493.58166
G1 X24.58 Y65.875 E493.60048
G1 X123.123 Y164.418 E498.23564
G1 X123.689 Y164.418 E498.25447
G1 X24.58 Y65.309 E502.91625
G1 X24.58 Y64.744 E502.93504
G1 X124.254 Y164.418 E507.6234
G1 X124.82 Y164.418 E507.64223
G1 X24.58 Y64.178 E512.35721
G1 X24.58 Y63.612 E512.37603
G1 X125.386 Y164.418 E517.11764
G1 X125.951 Y164.418 E517.13643
G1 X24.58 Y63.047 E521.90461
G1 X24.58 Y62.481 E521.92344
G1 X126.517 Y164.418 E526.71824
G1 X127.083 Y164.418 E526.73707
G1 X24.58 Y61.915 E531.55849
G1 X24.58 Y61.349 E531.57732
G1 X127.649 Y164.418 E536.42537
G1 X128.214 Y164.418 E536.44416
G1 X24.58 Y60.784 E541.31879
G1 X24.58 Y60.218 E541.33761
G1 X128.78 Y164.418 E546.23886
G1 X129.346 Y164.418 E546.25769
G1 X24.58 Y59.652 E551.18556
G1 X24.58 Y59.087 E551.20435
G1 X129.911 Y164.418 E556.1588
G1 X130.477 Y164.418 E556.17762
G1 X24.58 Y58.521 E561.15869
G1 X24.58 Y57.955 E561.17752
G1 X131.043 Y164.418 E566.18521
G1 X131.608 Y164.418 E566.204
G1 X24.58 Y57.39 E571.23827
G1 X24.58 Y56.824 E571.2571
G1 X132.174 Y164.418 E576.31799
G1 X132.74 Y164.418 E576.33681
G1 X24.58 Y56.258 E581.42433
G1 X24.58 Y55.693 E581.44312
G1 X133.305 Y164.418 E586.55721
G1 X133.871 Y164.418 E586.57604
G1 X24.58 Y55.127 E591.71675
G1 X24.58 Y54.561 E591.73558
G1 X134.437 Y164.418 E596.90291
G1 X135.002 Y164.418 E596.9217
G1 X24.58 Y53.996 E602.11562
G1 X24.58 Y53.43 E602.13444
G1 X135.568 Y164.418 E607.35498
G1 X136.134 Y164.418 E607.3738
G1 X24.58 Y52.864 E612.62096
G1 X24.58 Y52.299 E612.63975
G1 X136.7 Y164.418 E617.91351
G1 X137.265 Y164.418 E617.9323
G1 X24.58 Y51.733 E623.23266
G1 X24.58 Y51.167 E623.25148
G1 X137.831 Y164.418 E628.57846
G1 X138.397 Y164.418 E628.59729
G1 X24.58 Y50.601 E633.95089
G1 X24.58 Y50.036 E633.96968
G1 X138.962 Y164.418 E639.34986
G1 X139.528 Y164.418 E639.36869
G1 X24.58 Y49.47 E644.77549
G1 X24.58 Y48.904 E644.79431
G1 X140.094 Y164.418 E650.22774
G1 X140.659 Y164.418 E650.24653
G1 X24.58 Y48.339 E655.70653
G1 X24.58 Y47.773 E655.72536
