;FLAVOR:Marlin
;TIME:3682
;Filament used: 4.57582m
;Layer height: 0.2
;MINX:66.78
;MINY:59.655
;MINZ:0.2
;MAXX:183.22
;MAXY:150.345
;MAXZ:7
;Generated with Cura_SteamEngine 4.7.0
M82 ;absolute extrusion mode
;Sliced at: Tue 16-03-2021 14:54:20
G21
G90
M82
M220 S100
M221 S100
G28
M190 S60
M109 S210
G1 F600 Z15
G92 E0
G1 F300 E10
M117 Printing...
;

G92 E0
;T0                             ;switch to extruder 1
;G92 E0                      ;reset extruder distance
;G1 F2000 E93           ;load filament
;G92 E0                      ;reset extruder distance
;M104 S210
;

G92 E0
G1 F1500 E-6
;LAYER_COUNT:35
;LAYER:0
M107
G0 F2400 X68.657 Y62.096 Z0.2
;TYPE:SKIRT
G1 F1500 E0
G1 X69.269 Y61.488 E0.03156
G1 X69.579 Y61.231 E0.04629
G1 X70.007 Y60.92 E0.06565
G1 X70.352 Y60.702 E0.08058
G1 X70.817 Y60.447 E0.09998
G1 X71.61 Y60.105 E0.13158
G1 X71.997 Y59.979 E0.14647
G1 X72.506 Y59.848 E0.1657
G1 X72.909 Y59.771 E0.18071
G1 X73.484 Y59.699 E0.20191
G1 X73.786 Y59.675 E0.213
G1 X74.376 Y59.657 E0.23459
G1 X170.999 Y59.655 E3.76966
G1 X175.373 Y59.656 E3.92968
G1 X176.038 Y59.665 E3.95402
G1 X176.687 Y59.709 E3.97781
G1 X176.993 Y59.753 E3.98912
G1 X177.545 Y59.859 E4.00969
G1 X177.927 Y59.956 E4.02411
G1 X178.423 Y60.116 E4.04318
G1 X179.231 Y60.467 E4.07541
G1 X179.589 Y60.664 E4.09036
G1 X180.036 Y60.948 E4.10973
G1 X180.366 Y61.188 E4.12466
G1 X180.778 Y61.53 E4.14425
G1 X181.386 Y62.142 E4.17581
G1 X181.64 Y62.45 E4.19042
G1 X181.953 Y62.88 E4.20988
G1 X182.173 Y63.227 E4.22491
G1 X182.428 Y63.692 E4.24431
G1 X182.77 Y64.485 E4.27591
G1 X182.896 Y64.872 E4.2908
G1 X183.027 Y65.381 E4.31003
G1 X183.104 Y65.782 E4.32497
G1 X183.178 Y66.37 E4.34665
G1 X183.218 Y67.099 E4.37336
G1 X183.22 Y139.411 E7.01898
G1 X183.219 Y142.501 E7.13203
G1 X183.21 Y143.169 E7.15647
G1 X183.165 Y143.819 E7.18031
G1 X183.122 Y144.12 E7.19143
G1 X183.016 Y144.671 E7.21196
G1 X182.919 Y145.052 E7.22635
G1 X182.759 Y145.548 E7.24541
G1 X182.408 Y146.356 E7.27764
G1 X182.211 Y146.714 E7.29259
G1 X181.927 Y147.161 E7.31197
G1 X181.687 Y147.491 E7.3269
G1 X181.345 Y147.903 E7.34649
G1 X180.731 Y148.512 E7.37813
G1 X180.421 Y148.769 E7.39286
G1 X179.982 Y149.088 E7.41271
G1 X179.22 Y149.536 E7.44505
G1 X178.85 Y149.71 E7.46001
G1 X178.352 Y149.907 E7.47961
G1 X177.498 Y150.153 E7.51212
G1 X177.096 Y150.229 E7.52709
G1 X176.536 Y150.299 E7.54774
G1 X176.232 Y150.323 E7.55889
G1 X175.52 Y150.344 E7.58496
G1 X74.858 Y150.345 E11.26779
G1 X73.987 Y150.333 E11.29966
G1 X73.36 Y150.295 E11.32264
G1 X72.53 Y150.16 E11.35341
G1 X72.003 Y150.023 E11.37333
G1 X71.166 Y149.717 E11.40593
G1 X70.807 Y149.549 E11.42043
G1 X70.34 Y149.293 E11.43992
G1 X69.998 Y149.076 E11.45474
G1 X69.533 Y148.739 E11.47575
G1 X69.097 Y148.366 E11.49674
G1 X68.649 Y147.898 E11.52044
G1 X68.319 Y147.499 E11.53939
G1 X68.082 Y147.173 E11.55413
G1 X67.8 Y146.729 E11.57338
G1 X67.603 Y146.372 E11.5883
G1 X67.379 Y145.895 E11.60758
G1 X67.078 Y145.041 E11.6407
G1 X66.982 Y144.665 E11.6549
G1 X66.886 Y144.165 E11.67353
G1 X66.835 Y143.766 E11.68825
G1 X66.797 Y143.178 E11.7098
G1 X66.78 Y142.65 E11.72913
G1 X66.78 Y70.587 E14.36564
G1 X66.781 Y67.494 E14.4788
G1 X66.791 Y66.817 E14.50357
G1 X66.829 Y66.241 E14.52469
G1 X66.878 Y65.88 E14.53802
G1 X66.984 Y65.329 E14.55855
G1 X67.081 Y64.948 E14.57293
G1 X67.241 Y64.452 E14.592
G1 X67.594 Y63.642 E14.62433
G1 X67.791 Y63.283 E14.63931
G1 X68.076 Y62.835 E14.65873
G1 X68.317 Y62.505 E14.67368
G1 X68.657 Y62.096 E14.69314
G1 F1500 E8.69314
;MESH:SKR-LerdgeX.stl
G0 F2400 X71.325 Y64.859
G0 X71.067 Y66.898
;TYPE:WALL-INNER
G1 F1500 E14.69314
G1 X71.148 Y67.637 E14.71787
G1 X71.391 Y68.293 E14.74114
G1 X71.41 Y68.344 E14.74295
G1 X71.839 Y68.963 E14.768
G1 X72.41 Y69.456 E14.79309
G1 X73.087 Y69.791 E14.81821
G1 X73.823 Y69.948 E14.84324
G1 X74.579 Y69.917 E14.86841
G1 X75.298 Y69.697 E14.89341
G1 X75.941 Y69.308 E14.91841
G1 X76.469 Y68.77 E14.94348
G1 X76.848 Y68.119 E14.96854
G1 X77.05 Y67.393 E14.9936
G1 X77.068 Y66.64 E15.01865
G1 X76.896 Y65.905 E15.04376
G1 X76.546 Y65.235 E15.0689
G1 X76.043 Y64.674 E15.09396
G1 X75.437 Y64.272 E15.11815
G1 X75.414 Y64.257 E15.11906
G1 X74.703 Y64.01 E15.1441
G1 X74.25 Y63.971 E15.15922
G1 X73.953 Y63.944 E15.16914
G1 X73.581 Y64.006 E15.18168
G1 X73.209 Y64.069 E15.19423
G1 X72.868 Y64.22 E15.20663
G1 X72.519 Y64.376 E15.21935
G1 X72.223 Y64.609 E15.23188
G1 X71.927 Y64.843 E15.24443
G1 X71.698 Y65.145 E15.25703
G1 X71.471 Y65.444 E15.26952
G1 X71.326 Y65.79 E15.282
G1 X71.18 Y66.139 E15.29458
G1 X71.124 Y66.512 E15.30712
G1 X71.111 Y66.595 E15.30992
G1 X71.048 Y66.716 E15.31446
G1 X71.067 Y66.898 E15.32054
G0 F2400 X71.459 Y66.793
G1 F1500 X71.54 Y67.545 E15.3457
G1 X71.767 Y68.157 E15.36741
G1 X72.139 Y68.693 E15.38911
G1 X72.633 Y69.12 E15.41083
G1 X73.219 Y69.41 E15.43257
G1 X73.857 Y69.546 E15.45427
G1 X74.511 Y69.519 E15.47604
G1 X75.134 Y69.329 E15.4977
G1 X75.691 Y68.992 E15.51936
G1 X76.148 Y68.526 E15.54107
G1 X76.476 Y67.962 E15.56277
G1 X76.651 Y67.334 E15.58445
G1 X76.667 Y66.681 E15.60617
G1 X76.518 Y66.045 E15.6279
G1 X76.215 Y65.465 E15.64967
G1 X75.779 Y64.979 E15.67138
G1 X75.235 Y64.618 E15.6931
G1 X74.619 Y64.404 E15.71479
G1 X73.969 Y64.347 E15.73649
G1 X73.325 Y64.455 E15.75821
G1 X72.728 Y64.721 E15.77994
G1 X72.215 Y65.126 E15.80168
G1 X71.82 Y65.645 E15.82338
G1 X71.568 Y66.248 E15.84511
G1 X71.497 Y66.72 E15.86099
G1 X71.459 Y66.793 E15.86373
G0 F2400 X71.87 Y66.871
;TYPE:WALL-OUTER
G1 F1500 X71.932 Y67.453 E15.88319
G1 X72.124 Y67.97 E15.90154
G1 X72.439 Y68.423 E15.91989
G1 X72.856 Y68.784 E15.93823
G1 X73.351 Y69.029 E15.9566
G1 X73.891 Y69.144 E15.97496
G1 X74.443 Y69.121 E15.99334
G1 X74.97 Y68.961 E16.01166
G1 X75.441 Y68.676 E16.02997
G1 X75.827 Y68.282 E16.04831
G1 X76.104 Y67.805 E16.06666
G1 X76.252 Y67.274 E16.08499
G1 X76.266 Y66.722 E16.10336
G1 X76.14 Y66.185 E16.12171
G1 X75.884 Y65.695 E16.14009
G1 X75.515 Y65.284 E16.15846
G1 X75.056 Y64.979 E16.17679
G1 X74.535 Y64.798 E16.19514
G1 X73.985 Y64.75 E16.2135
G1 X73.441 Y64.841 E16.23185
G1 X72.937 Y65.066 E16.2502
G1 X72.503 Y65.409 E16.2686
G1 X72.169 Y65.847 E16.28692
G1 X71.956 Y66.356 E16.30527
G1 X71.883 Y66.846 E16.32175
G1 X71.87 Y66.871 E16.32269
G0 F2400 X71.891 Y67.069
G0 X71.454 Y67.114
G1 F1500 E10.32269
G0 F2400 X71.394 Y67.119
G0 X71.732 Y68.175
G0 X72.611 Y69.153
G0 X82.428 Y73.439
;TYPE:WALL-INNER
G1 F1500 E16.32269
G1 X82.121 Y74.13 E16.34784
G1 X81.996 Y74.87 E16.3728
G1 X82.056 Y75.622 E16.39789
G1 X82.305 Y76.334 E16.42298
G1 X82.722 Y76.966 E16.44816
G1 X83.283 Y77.468 E16.4732
G1 X83.949 Y77.819 E16.49824
G1 X84.682 Y77.99 E16.52327
G1 X85.435 Y77.978 E16.54832
G1 X86.163 Y77.775 E16.57346
G1 X86.818 Y77.397 E16.59861
G1 X87.356 Y76.868 E16.62371
G1 X87.746 Y76.225 E16.64872
G1 X87.964 Y75.506 E16.67371
G1 X87.999 Y74.753 E16.69878
G1 X87.842 Y74.014 E16.72391
G1 X87.507 Y73.336 E16.74906
G1 X87.014 Y72.765 E16.77415
G1 X86.395 Y72.335 E16.79922
G1 X86.347 Y72.318 E16.80091
G1 X85.687 Y72.073 E16.82433
G1 X84.94 Y71.992 E16.84932
G1 X84.194 Y72.103 E16.87441
G1 X83.499 Y72.394 E16.89947
G1 X82.897 Y72.85 E16.92458
G1 X82.428 Y73.439 E16.94963
G0 F2400 X82.773 Y73.648
G1 F1500 X82.507 Y74.246 E16.97139
G1 X82.399 Y74.888 E16.99305
G1 X82.451 Y75.539 E17.01477
G1 X82.666 Y76.155 E17.03647
G1 X83.027 Y76.702 E17.05827
G1 X83.513 Y77.137 E17.07996
G1 X84.09 Y77.441 E17.10165
G1 X84.725 Y77.589 E17.12334
G1 X85.377 Y77.579 E17.14503
G1 X86.007 Y77.403 E17.16678
G1 X86.574 Y77.076 E17.18855
G1 X87.04 Y76.618 E17.21029
G1 X87.378 Y76.061 E17.23196
G1 X87.567 Y75.438 E17.25361
G1 X87.597 Y74.786 E17.27532
G1 X87.461 Y74.146 E17.29708
G1 X87.171 Y73.559 E17.31886
G1 X86.744 Y73.065 E17.34057
G1 X86.208 Y72.692 E17.36229
G1 X85.595 Y72.465 E17.38403
G1 X84.948 Y72.395 E17.40568
G1 X84.302 Y72.491 E17.4274
G1 X83.7 Y72.743 E17.44911
G1 X83.179 Y73.138 E17.47085
G1 X82.773 Y73.648 E17.49253
G0 F2400 X83.118 Y73.857
;TYPE:WALL-OUTER
G1 F1500 X82.893 Y74.362 E17.51092
G1 X82.802 Y74.905 E17.52923
G1 X82.846 Y75.456 E17.54762
G1 X83.027 Y75.976 E17.56593
G1 X83.332 Y76.438 E17.58434
G1 X83.743 Y76.806 E17.60269
G1 X84.231 Y77.063 E17.62104
G1 X84.768 Y77.188 E17.63938
G1 X85.319 Y77.18 E17.6577
G1 X85.851 Y77.031 E17.67608
G1 X86.33 Y76.755 E17.69447
G1 X86.724 Y76.368 E17.71284
G1 X87.01 Y75.897 E17.73116
G1 X87.17 Y75.37 E17.74948
G1 X87.195 Y74.819 E17.76783
G1 X87.08 Y74.278 E17.78622
G1 X86.835 Y73.782 E17.80462
G1 X86.474 Y73.365 E17.82297
G1 X86.021 Y73.049 E17.84134
G1 X85.503 Y72.857 E17.85971
G1 X84.956 Y72.798 E17.87801
G1 X84.41 Y72.879 E17.89637
G1 X83.901 Y73.092 E17.91472
G1 X83.461 Y73.426 E17.93309
G1 X83.118 Y73.857 E17.95141
G0 F2400 X83.037 Y74.039
G0 X82.635 Y73.859
G0 X82.581 Y73.835
G0 X80.495 Y78.895
;TYPE:WALL-INNER
G1 F1500 X79.893 Y79.353 E17.97657
G1 X79.424 Y79.948 E18.00177
G1 X79.117 Y80.64 E18.02695
G1 X79 Y81.378 E18.0518
G1 X79 Y128.509 E19.61939
G1 X79.104 Y129.206 E19.64283
G1 X79.42 Y129.94 E19.6694
G1 X79.89 Y130.535 E19.69462
G1 X80.494 Y130.995 E19.71988
G1 X81.234 Y131.3 E19.7465
G1 X81.991 Y131.398 E19.77188
G1 X82.786 Y131.295 E19.79855
G1 X83.459 Y131.017 E19.82277
G1 X83.772 Y130.813 E19.83519
G1 X106.573 Y113.774 E20.78192
G1 X107.093 Y113.36 E20.80402
G1 X107.603 Y112.898 E20.82691
G1 X108.083 Y112.405 E20.8498
G1 X108.532 Y111.884 E20.87267
G1 X108.947 Y111.335 E20.89556
G1 X109.326 Y110.76 E20.91847
G1 X109.331 Y110.75 E20.91884
G1 X109.67 Y110.165 E20.94133
G1 X109.976 Y109.549 E20.96421
G1 X110.243 Y108.914 E20.98712
G1 X110.468 Y108.263 E21.01003
G1 X110.653 Y107.6 E21.03292
G1 X110.796 Y106.928 E21.05577
G1 X110.896 Y106.246 E21.0787
G1 X110.896 Y106.235 E21.07906
G1 X110.956 Y105.561 E21.10157
G1 X110.969 Y104.872 E21.12449
G1 X110.942 Y104.185 E21.14736
G1 X110.871 Y103.5 E21.17026
G1 X110.756 Y102.823 E21.1931
G1 X110.601 Y102.152 E21.21601
G1 X110.405 Y101.492 E21.23891
G1 X110.165 Y100.846 E21.26183
G1 X109.887 Y100.217 E21.2847
G1 X109.57 Y99.605 E21.30762
G1 X109.214 Y99.016 E21.33051
G1 X108.824 Y98.45 E21.35338
G1 X108.399 Y97.909 E21.37626
G1 X107.94 Y97.395 E21.39918
G1 X107.45 Y96.91 E21.42211
G1 X106.935 Y96.465 E21.44475
G1 X106.58 Y96.184 E21.4598
G1 X83.701 Y79.026 E22.41098
G1 X83.076 Y78.697 E22.43447
G1 X82.702 Y78.579 E22.44751
G1 X81.986 Y78.492 E22.4715
G1 X81.235 Y78.59 E22.49669
G1 X80.495 Y78.895 E22.52331
G0 F2400 X80.696 Y79.245
G1 F1500 X80.176 Y79.641 E22.54505
G1 X79.769 Y80.156 E22.56689
G1 X79.504 Y80.754 E22.58864
G1 X79.4 Y81.41 E22.61073
G1 X79.4 Y128.479 E24.17625
G1 X79.492 Y129.095 E24.19697
G1 X79.767 Y129.733 E24.22008
G1 X80.173 Y130.247 E24.24186
G1 X80.695 Y130.645 E24.26369
G1 X81.338 Y130.91 E24.28683
G1 X81.991 Y130.995 E24.30873
G1 X82.682 Y130.905 E24.3319
G1 X83.272 Y130.662 E24.35313
G1 X83.542 Y130.485 E24.36386
G1 X106.329 Y113.457 E25.31
G1 X106.834 Y113.055 E25.33147
G1 X107.325 Y112.61 E25.35351
G1 X107.788 Y112.135 E25.37557
G1 X108.221 Y111.633 E25.39762
G1 X108.62 Y111.104 E25.41966
G1 X108.986 Y110.55 E25.44174
G1 X109.317 Y109.976 E25.46378
G1 X109.612 Y109.382 E25.48584
G1 X109.869 Y108.771 E25.50788
G1 X110.086 Y108.144 E25.52995
G1 X110.264 Y107.505 E25.55201
G1 X110.402 Y106.857 E25.57405
G1 X110.499 Y106.2 E25.59614
G1 X110.556 Y105.54 E25.61817
G1 X110.569 Y104.876 E25.64026
G1 X110.543 Y104.214 E25.6623
G1 X110.474 Y103.554 E25.68437
G1 X110.364 Y102.901 E25.70639
G1 X110.214 Y102.254 E25.72848
G1 X110.025 Y101.619 E25.75052
G1 X109.794 Y100.997 E25.77259
G1 X109.526 Y100.39 E25.79465
G1 X109.221 Y99.801 E25.81672
G1 X108.878 Y99.233 E25.83879
G1 X108.502 Y98.687 E25.86083
G1 X108.092 Y98.166 E25.88289
G1 X107.65 Y97.671 E25.90496
G1 X107.178 Y97.204 E25.92704
G1 X106.68 Y96.773 E25.94895
G1 X106.336 Y96.501 E25.96353
G1 X83.486 Y79.365 E26.9135
G1 X82.922 Y79.068 E26.9347
G1 X82.617 Y78.972 E26.94533
G1 X81.988 Y78.895 E26.96641
G1 X81.339 Y78.98 E26.98818
G1 X80.696 Y79.245 E27.01131
G0 F2400 X80.897 Y79.595
;TYPE:WALL-OUTER
G1 F1500 X80.458 Y79.929 E27.02966
G1 X80.114 Y80.364 E27.0481
G1 X79.891 Y80.868 E27.06643
G1 X79.8 Y81.442 E27.08576
G1 X79.8 Y128.449 E28.64922
G1 X79.88 Y128.984 E28.66721
G1 X80.114 Y129.526 E28.68685
G1 X80.456 Y129.96 E28.70523
G1 X80.896 Y130.295 E28.72362
G1 X81.442 Y130.52 E28.74326
G1 X81.991 Y130.592 E28.76168
G1 X82.578 Y130.515 E28.78137
G1 X83.084 Y130.307 E28.79956
G1 X83.312 Y130.157 E28.80864
G1 X106.085 Y113.14 E29.75418
G1 X106.575 Y112.75 E29.77501
G1 X107.047 Y112.322 E29.7962
G1 X107.493 Y111.865 E29.81744
G1 X107.909 Y111.382 E29.83864
G1 X108.293 Y110.873 E29.85985
G1 X108.646 Y110.34 E29.88111
G1 X108.964 Y109.787 E29.90233
G1 X109.248 Y109.215 E29.92357
G1 X109.495 Y108.628 E29.94475
G1 X109.704 Y108.025 E29.96598
G1 X109.875 Y107.41 E29.98721
G1 X110.008 Y106.786 E30.00843
G1 X110.102 Y106.154 E30.02968
G1 X110.156 Y105.519 E30.05088
G1 X110.169 Y104.88 E30.07214
G1 X110.144 Y104.243 E30.09334
G1 X110.077 Y103.608 E30.11458
G1 X109.972 Y102.979 E30.13579
G1 X109.827 Y102.357 E30.15703
G1 X109.645 Y101.746 E30.17823
G1 X109.423 Y101.147 E30.19948
G1 X109.165 Y100.563 E30.22072
G1 X108.872 Y99.996 E30.24194
G1 X108.542 Y99.45 E30.26316
G1 X108.18 Y98.924 E30.2844
G1 X107.785 Y98.423 E30.30562
G1 X107.36 Y97.947 E30.32684
G1 X106.906 Y97.498 E30.34808
G1 X106.425 Y97.081 E30.36926
G1 X106.092 Y96.818 E30.38337
G1 X83.272 Y79.704 E31.33209
G1 X82.768 Y79.439 E31.35103
G1 X82.532 Y79.365 E31.35926
G1 X81.99 Y79.298 E31.37742
G1 X81.443 Y79.37 E31.39577
G1 X80.897 Y79.595 E31.41542
G0 F2400 X80.738 Y79.716
G0 X80.472 Y79.365
G1 F1500 E25.41542
G0 F2400 X80.437 Y79.318
G0 X84.721 Y77.628
G0 X85.9 Y77.474
G0 X93.923 Y73.323
;TYPE:WALL-INNER
G1 F1500 E31.41542
G1 X93.619 Y74.014 E31.44052
G1 X93.494 Y74.758 E31.46562
G1 X93.56 Y75.514 E31.49086
G1 X93.813 Y76.226 E31.51599
G1 X94.228 Y76.845 E31.54078
G1 X94.658 Y77.244 E31.56029
G1 X118.438 Y95.079 E32.54894
G1 X118.986 Y95.463 E32.5712
G1 X119.578 Y95.825 E32.59428
G1 X120.194 Y96.15 E32.61744
G1 X120.829 Y96.434 E32.64058
G1 X121.478 Y96.678 E32.66364
G1 X122.143 Y96.881 E32.68677
G1 X122.82 Y97.041 E32.7099
G1 X123.492 Y97.155 E32.73257
G1 X123.505 Y97.158 E32.73302
G1 X124.196 Y97.233 E32.75614
G1 X124.893 Y97.262 E32.77934
G1 X125.584 Y97.249 E32.80232
G1 X126.279 Y97.192 E32.82552
G1 X126.966 Y97.089 E32.84862
G1 X127.647 Y96.945 E32.87177
G1 X128.316 Y96.757 E32.89489
G1 X128.973 Y96.528 E32.91803
G1 X129.614 Y96.256 E32.94119
G1 X130.235 Y95.946 E32.96427
G1 X130.837 Y95.599 E32.98738
G1 X131.405 Y95.218 E33.01013
G1 X131.596 Y95.079 E33.01799
G1 X155.473 Y77.238 E34.00935
G1 X155.968 Y76.756 E34.03233
G1 X156.364 Y76.116 E34.05736
G1 X156.587 Y75.392 E34.08256
G1 X156.622 Y74.637 E34.1077
G1 X156.468 Y73.897 E34.13284
G1 X156.133 Y73.218 E34.15802
G1 X155.641 Y72.644 E34.18316
G1 X155.023 Y72.212 E34.20824
G1 X154.318 Y71.948 E34.23328
G1 X153.682 Y71.875 E34.25457
G1 X96.381 Y71.875 E36.16041
G1 X95.689 Y71.979 E36.18369
G1 X94.993 Y72.272 E36.2088
G1 X94.391 Y72.729 E36.23394
G1 X93.923 Y73.323 E36.25909
G0 F2400 X94.269 Y73.531
G1 F1500 X94.005 Y74.13 E36.28086
G1 X93.897 Y74.774 E36.30258
G1 X93.954 Y75.428 E36.32442
G1 X94.173 Y76.045 E36.34619
G1 X94.534 Y76.583 E36.36774
G1 X94.915 Y76.936 E36.38502
G1 X118.673 Y94.755 E37.37277
G1 X119.205 Y95.128 E37.39438
G1 X119.776 Y95.477 E37.41664
G1 X120.369 Y95.79 E37.43894
G1 X120.981 Y96.064 E37.46124
G1 X121.607 Y96.299 E37.48348
G1 X122.248 Y96.495 E37.50578
G1 X122.9 Y96.649 E37.52806
G1 X123.56 Y96.762 E37.55033
G1 X124.226 Y96.834 E37.57261
G1 X124.897 Y96.862 E37.59495
G1 X125.564 Y96.849 E37.61714
G1 X126.233 Y96.794 E37.63946
G1 X126.895 Y96.695 E37.66173
G1 X127.551 Y96.556 E37.68403
G1 X128.196 Y96.375 E37.70631
G1 X128.829 Y96.155 E37.7286
G1 X129.446 Y95.893 E37.75089
G1 X130.045 Y95.594 E37.77316
G1 X130.625 Y95.259 E37.79544
G1 X131.176 Y94.89 E37.81749
G1 X131.359 Y94.757 E37.82502
G1 X155.213 Y76.933 E38.81543
G1 X155.654 Y76.504 E38.83589
G1 X155.997 Y75.949 E38.85759
G1 X156.19 Y75.323 E38.87938
G1 X156.22 Y74.669 E38.90115
G1 X156.087 Y74.028 E38.92293
G1 X155.797 Y73.44 E38.94473
