; G-Code generated by Simplify3D(R) Version 4.1.2
; Oct 17, 2019 at 4:43:03 PM
; Settings Summary
;   processName,Process1
;   applyToModels,Mouse
;   profileName,1 (modified)
;   profileVersion,2017-03-01 08:00:00
;   baseProfile,Default (modified)
;   printMaterial,PLA
;   printQuality,Medium
;   printExtruders,
;   extruderName,Primary Extruder
;   extruderToolheadNumber,0
;   extruderDiameter,0.4
;   extruderAutoWidth,0
;   extruderWidth,0.4
;   extrusionMultiplier,0.99
;   extruderUseRetract,1
;   extruderRetractionDistance,4
;   extruderExtraRestartDistance,0
;   extruderRetractionZLift,0
;   extruderRetractionSpeed,3000
;   extruderUseCoasting,0
;   extruderCoastingDistance,0.2
;   extruderUseWipe,0
;   extruderWipeDistance,5
;   primaryExtruder,0
;   layerHeight,0.2
;   topSolidLayers,3
;   bottomSolidLayers,3
;   perimeterOutlines,3
;   printPerimetersInsideOut,1
;   startPointOption,2
;   startPointOriginX,200
;   startPointOriginY,200
;   sequentialIslands,0
;   spiralVaseMode,0
;   firstLayerHeightPercentage,150
;   firstLayerWidthPercentage,110
;   firstLayerUnderspeed,0.7
;   useRaft,0
;   raftExtruder,0
;   raftTopLayers,3
;   raftBaseLayers,2
;   raftOffset,3
;   raftSeparationDistance,0.14
;   raftTopInfill,100
;   aboveRaftSpeedMultiplier,0.3
;   useSkirt,1
;   skirtExtruder,0
;   skirtLayers,1
;   skirtOutlines,2
;   skirtOffset,2
;   usePrimePillar,0
;   primePillarExtruder,999
;   primePillarWidth,12
;   primePillarLocation,7
;   primePillarSpeedMultiplier,1
;   useOozeShield,0
;   oozeShieldExtruder,999
;   oozeShieldOffset,2
;   oozeShieldOutlines,1
;   oozeShieldSidewallShape,1
;   oozeShieldSidewallAngle,30
;   oozeShieldSpeedMultiplier,1
;   infillExtruder,0
;   internalInfillPattern,Full Honeycomb
;   externalInfillPattern,Rectilinear
;   infillPercentage,20
;   outlineOverlapPercentage,15
;   infillExtrusionWidthPercentage,100
;   minInfillLength,5
;   infillLayerInterval,1
;   internalInfillAngles,0,120,-120
;   overlapInternalInfillAngles,0
;   externalInfillAngles,45,-45
;   generateSupport,0
;   supportExtruder,0
;   supportInfillPercentage,30
;   supportExtraInflation,0
;   supportBaseLayers,0
;   denseSupportExtruder,0
;   denseSupportLayers,0
;   denseSupportInfillPercentage,70
;   supportLayerInterval,1
;   supportHorizontalPartOffset,0.3
;   supportUpperSeparationLayers,1
;   supportLowerSeparationLayers,1
;   supportType,0
;   supportGridSpacing,4
;   maxOverhangAngle,45
;   supportAngles,0
;   temperatureName,Primary Extruder,Bad
;   temperatureNumber,0,0
;   temperatureSetpointCount,1,1
;   temperatureSetpointLayers,1,1
;   temperatureSetpointTemperatures,210,60
;   temperatureStabilizeAtStartup,1,1
;   temperatureHeatedBed,0,1
;   fanLayers,1,2
;   fanSpeeds,0,70
;   blipFanToFullPower,0
;   adjustSpeedForCooling,1
;   minSpeedLayerTime,15
;   minCoolingSpeedSlowdown,20
;   increaseFanForCooling,0
;   minFanLayerTime,45
;   maxCoolingFanSpeed,100
;   increaseFanForBridging,0
;   bridgingFanSpeed,100
;   use5D,1
;   relativeEdistances,0
;   allowEaxisZeroing,1
;   independentExtruderAxes,0
;   includeM10123,0
;   stickySupport,1
;   applyToolheadOffsets,0
;   gcodeXoffset,0
;   gcodeYoffset,0
;   gcodeZoffset,0
;   overrideMachineDefinition,1
;   machineTypeOverride,0
;   strokeXoverride,300
;   strokeYoverride,300
;   strokeZoverride,300
;   originOffsetXoverride,0
;   originOffsetYoverride,0
;   originOffsetZoverride,0
;   homeXdirOverride,-1
;   homeYdirOverride,-1
;   homeZdirOverride,-1
;   flipXoverride,1
;   flipYoverride,-1
;   flipZoverride,1
;   toolheadOffsets,0,0|0,0|0,0|0,0|0,0|0,0
;   overrideFirmwareConfiguration,0
;   firmwareTypeOverride,RepRap (Marlin/Repetier/Sprinter)
;   GPXconfigOverride,r2
;   baudRateOverride,115200
;   overridePrinterModels,0
;   printerModelsOverride
;   startingGcode,G21,G28,G29
;   layerChangeGcode,
;   retractionGcode,
;   toolChangeGcode,
;   endingGcode,G1 X0,M104 S0 ; turn off extruder,M140 S0 ; turn off bed,M84 ; disable motors
;   exportFileFormat,gcode
;   celebration,0
;   celebrationSong,Random Song
;   postProcessing,
;   defaultSpeed,3000
;   outlineUnderspeed,0.5
;   solidInfillUnderspeed,0.8
;   supportUnderspeed,0.8
;   rapidXYspeed,4800
;   rapidZspeed,1000
;   minBridgingArea,50
;   bridgingExtraInflation,0
;   bridgingExtrusionMultiplier,1
;   bridgingSpeedMultiplier,1
;   useFixedBridgingAngle,0
;   fixedBridgingAngle,0
;   applyBridgingToPerimeters,0
;   filamentDiameters,1.75|1.75|1.75|1.75|1.75|1.75
;   filamentPricesPerKg,46|46|46|46|46|46
;   filamentDensities,1.25|1.25|1.25|1.25|1.25|1.25
;   useMinPrintHeight,0
;   minPrintHeight,0
;   useMaxPrintHeight,0
;   maxPrintHeight,0
;   useDiaphragm,0
;   diaphragmLayerInterval,20
;   robustSlicing,1
;   mergeAllIntoSolid,0
;   onlyRetractWhenCrossingOutline,1
;   retractBetweenLayers,1
;   useRetractionMinTravel,0
;   retractionMinTravel,3
;   retractWhileWiping,0
;   onlyWipeOutlines,1
;   avoidCrossingOutline,0
;   maxMovementDetourFactor,3
;   toolChangeRetractionDistance,12
;   toolChangeExtraRestartDistance,-0.5
;   toolChangeRetractionSpeed,600
;   externalThinWallType,0
;   internalThinWallType,2
;   thinWallAllowedOverlapPercentage,10
;   singleExtrusionMinLength,1
;   singleExtrusionMinPrintingWidthPercentage,50
;   singleExtrusionMaxPrintingWidthPercentage,200
;   singleExtrusionEndpointExtension,0.2
;   horizontalSizeCompensation,0
G90
M82
M106 S0
M140 S60
M190 S60
M104 S210 T0
M109 S210 T0
G21
G28
G29
; process Process1
; layer 1, Z = 0.300
T0
G92 E0.0000
G1 E-4.0000 F3000
; feature skirt
; tool H0.300 W0.440
G1 Z0.300 F1000
G1 X123.989 Y126.049 F4800
G1 E0.0000 F3000
G92 E0.0000
G1 X125.223 Y124.736 E0.0979 F2100
G1 X127.717 Y124.890 E0.2336
G1 X128.771 Y126.333 E0.3307
G1 X128.910 Y126.572 E0.3457
G1 X129.162 Y127.130 E0.3790
G1 X129.210 Y127.254 E0.3862
G1 X129.387 Y127.781 E0.4164
G1 X129.430 Y127.942 E0.4255
G1 X129.628 Y128.930 E0.4802
G1 X129.653 Y129.130 E0.4912
G1 X129.701 Y130.180 E0.5483
G1 X129.694 Y130.397 E0.5601
G1 X129.574 Y131.419 E0.6160
G1 X129.535 Y131.617 E0.6270
G1 X129.269 Y132.584 E0.6814
G1 X129.221 Y132.726 E0.6896
G1 X128.864 Y133.615 E0.7416
G1 X128.796 Y133.760 E0.7504
G1 X128.436 Y134.415 E0.7910
G1 X128.346 Y134.558 E0.8001
G1 X127.590 Y135.596 E0.8699
G1 X127.553 Y135.644 E0.8732
G1 X126.401 Y137.084 E0.9734
G1 X126.341 Y137.153 E0.9784
G1 X124.739 Y138.893 E1.1068
G1 X124.677 Y138.957 E1.1117
G1 X123.503 Y140.071 E1.1996
G1 X123.419 Y140.144 E1.2057
G1 X121.616 Y141.589 E1.3312
G1 X120.281 Y142.708 E1.4259
G1 X119.902 Y143.042 E1.4533
G1 X119.660 Y143.292 E1.4722
G1 X119.493 Y143.517 E1.4874
G1 X119.345 Y143.777 E1.5037
G1 X119.105 Y144.351 E1.5374
G1 X119.018 Y144.661 E1.5550
G1 X118.963 Y144.987 E1.5729
G1 X118.942 Y145.338 E1.5920
G1 X118.956 Y145.716 E1.6126
G1 X119.000 Y146.055 E1.6312
G1 X119.154 Y146.645 E1.6643
G1 X119.288 Y146.986 E1.6842
G1 X119.479 Y147.369 E1.7074
G1 X119.695 Y147.729 E1.7302
G1 X119.941 Y148.072 E1.7532
G1 X120.102 Y148.264 E1.7668
G1 X120.601 Y148.767 E1.8053
G1 X120.791 Y148.930 E1.8189
G1 X121.172 Y149.208 E1.8445
G1 X121.838 Y149.570 E1.8857
G1 X122.579 Y149.845 E1.9286
G1 X123.576 Y150.080 E1.9843
G1 X123.787 Y150.112 E1.9959
G1 X124.428 Y150.158 E2.0308
G1 X125.668 Y150.132 E2.0982
G1 X126.933 Y150.019 E2.1672
G1 X127.767 Y149.891 E2.2130
G1 X128.624 Y149.720 E2.2605
G1 X130.612 Y149.223 E2.3718
G1 X131.075 Y149.089 E2.3980
G1 X131.184 Y149.043 E2.4044
G1 X131.408 Y148.895 E2.4190
G1 X131.630 Y148.698 E2.4352
G1 X131.876 Y148.415 E2.4555
G1 X132.062 Y148.127 E2.4742
G1 X132.217 Y147.771 E2.4953
G1 X132.682 Y146.136 E2.5876
G1 X132.716 Y146.031 E2.5936
G1 X133.309 Y144.456 E2.6850
G1 X133.355 Y144.349 E2.6914
G1 X134.085 Y142.829 E2.7830
G1 X134.141 Y142.726 E2.7893
G1 X135.001 Y141.277 E2.8809
G1 X135.066 Y141.179 E2.8873
G1 X136.044 Y139.819 E2.9783
G1 X136.102 Y139.744 E2.9835
G1 X136.759 Y138.957 E3.0392
G1 X136.816 Y138.894 E3.0438
G1 X137.859 Y137.793 E3.1262
G1 X137.940 Y137.715 E3.1323
G1 X139.198 Y136.596 E3.2238
G1 X139.289 Y136.522 E3.2301
G1 X140.642 Y135.516 E3.3217
G1 X140.739 Y135.450 E3.3281
G1 X142.175 Y134.567 E3.4196
G1 X142.277 Y134.511 E3.4260
G1 X143.785 Y133.757 E3.5176
G1 X143.892 Y133.709 E3.5240
G1 X145.460 Y133.091 E3.6156
G1 X145.571 Y133.053 E3.6219
G1 X147.188 Y132.575 E3.7135
G1 X147.301 Y132.547 E3.7199
G1 X148.954 Y132.213 E3.8115
G1 X149.069 Y132.195 E3.8178
G1 X150.745 Y132.007 E3.9094
G1 X150.861 Y131.999 E3.9158
G1 X152.546 Y131.959 E4.0073
G1 X152.660 Y131.961 E4.0135
G1 X154.517 Y132.077 E4.1146
G1 X154.571 Y132.082 E4.1175
G1 X156.185 Y132.249 E4.2057
G1 X156.246 Y132.256 E4.2090
G1 X158.767 Y132.636 E4.3475
G1 X158.821 Y132.645 E4.3505
G1 X160.097 Y132.891 E4.4211
G1 X160.151 Y132.903 E4.4241
G1 X162.638 Y133.490 E4.5629
G1 X162.708 Y133.509 E4.5669
G1 X165.160 Y134.231 E4.7058
G1 X165.212 Y134.248 E4.7087
G1 X166.444 Y134.667 E4.7794
G1 X166.495 Y134.686 E4.7824
G1 X168.880 Y135.608 E4.9213
G1 X168.947 Y135.637 E4.9253
G1 X171.286 Y136.693 E5.0647
G1 X171.352 Y136.725 E5.0687
G1 X173.631 Y137.909 E5.2082
G1 X173.695 Y137.944 E5.2122
G1 X175.905 Y139.251 E5.3517
G1 X175.962 Y139.287 E5.3553
G1 X177.628 Y140.390 E5.4639
G1 X177.669 Y140.419 E5.4667
G1 X179.189 Y141.510 E5.5683
G1 X179.241 Y141.549 E5.5718
G1 X181.254 Y143.151 E5.7116
G1 X181.302 Y143.191 E5.7150
G1 X182.562 Y144.295 E5.8060
G1 X182.601 Y144.330 E5.8088
G1 X184.218 Y145.861 E5.9298
G1 X184.255 Y145.898 E5.9327
G1 X185.161 Y146.826 E6.0032
G1 X185.187 Y146.853 E6.0052
G1 X185.964 Y147.695 E6.0674
G1 X186.021 Y147.761 E6.0722
G1 X186.377 Y148.203 E6.1030
G1 X186.467 Y148.328 E6.1114
G1 X186.889 Y148.995 E6.1543
G1 X186.971 Y149.146 E6.1636
G1 X187.271 Y149.790 E6.2022
G1 X187.334 Y149.953 E6.2117
G1 X187.573 Y150.715 E6.2551
G1 X187.613 Y150.883 E6.2645
G1 X187.736 Y151.583 E6.3031
G1 X187.755 Y151.756 E6.3125
G1 X187.791 Y152.572 E6.3569
G1 X187.783 Y152.781 E6.3683
G1 X187.673 Y153.752 E6.4214
G1 X187.636 Y153.945 E6.4320
G1 X187.450 Y154.642 E6.4712
G1 X187.395 Y154.805 E6.4806
G1 X187.091 Y155.545 E6.5240
G1 X187.014 Y155.702 E6.5335
G1 X186.658 Y156.320 E6.5723
G1 X186.561 Y156.466 E6.5818
G1 X186.047 Y157.136 E6.6277
G1 X185.956 Y157.243 E6.6353
G1 X184.305 Y158.980 E6.7655
G1 X184.266 Y159.019 E6.7685
G1 X183.290 Y159.966 E6.8424
G1 X183.252 Y160.001 E6.8452
G1 X181.679 Y161.413 E6.9601
G1 X181.640 Y161.446 E6.9628
G1 X180.276 Y162.578 E7.0591
G1 X180.226 Y162.618 E7.0626
G1 X178.176 Y164.158 E7.2019
G1 X178.131 Y164.191 E7.2049
G1 X177.059 Y164.928 E7.2756
G1 X177.021 Y164.954 E7.2781
G1 X175.510 Y165.919 E7.3755
G1 X175.467 Y165.945 E7.3783
G1 X173.696 Y166.983 E7.4898
G1 X173.653 Y167.007 E7.4925
G1 X172.508 Y167.623 E7.5631
G1 X172.459 Y167.648 E7.5661
G1 X170.165 Y168.760 E7.7046
G1 X170.115 Y168.783 E7.7076
G1 X168.922 Y169.302 E7.7783
G1 X168.871 Y169.323 E7.7813
G1 X166.487 Y170.246 E7.9202
G1 X166.418 Y170.270 E7.9241
G1 X163.987 Y171.060 E8.0630
G1 X163.935 Y171.076 E8.0660
G1 X162.682 Y171.427 E8.1367
G1 X162.629 Y171.441 E8.1396
G1 X160.142 Y172.028 E8.2785
G1 X160.071 Y172.042 E8.2824
G1 X157.556 Y172.492 E8.4212
G1 X157.502 Y172.501 E8.4242
G1 X156.213 Y172.676 E8.4949
G1 X156.159 Y172.683 E8.4978
G1 X153.604 Y172.925 E8.6373
G1 X153.507 Y172.930 E8.6425
G1 X151.776 Y172.968 E8.7366
G1 X151.662 Y172.966 E8.7428
G1 X150.156 Y172.870 E8.8248
G1 X150.072 Y172.862 E8.8294
G1 X149.074 Y172.734 E8.8840
G1 X149.009 Y172.724 E8.8876
G1 X148.168 Y172.574 E8.9340
G1 X148.087 Y172.557 E8.9385
G1 X146.635 Y172.205 E9.0197
G1 X146.554 Y172.182 E9.0243
G1 X145.579 Y171.878 E9.0798
G1 X145.490 Y171.847 E9.0849
G1 X143.940 Y171.240 E9.1753
G1 X143.838 Y171.195 E9.1813
G1 X142.485 Y170.529 E9.2633
G1 X142.410 Y170.489 E9.2679
G1 X141.537 Y169.988 E9.3226
G1 X141.481 Y169.955 E9.3262
G1 X140.760 Y169.492 E9.3727
G1 X140.688 Y169.443 E9.3774
G1 X139.350 Y168.456 E9.4678
G1 X139.259 Y168.382 E9.4741
G1 X138.013 Y167.282 E9.5644
G1 X137.949 Y167.222 E9.5692
G1 X137.337 Y166.607 E9.6163
G1 X137.278 Y166.543 E9.6211
G1 X136.196 Y165.300 E9.7106
G1 X136.141 Y165.232 E9.7154
G1 X135.616 Y164.544 E9.7624
G1 X135.569 Y164.477 E9.7668
G1 X134.738 Y163.235 E9.8480
G1 X134.693 Y163.162 E9.8527
G1 X134.189 Y162.290 E9.9074
G1 X134.158 Y162.233 E9.9109
G1 X133.765 Y161.472 E9.9574
G1 X133.728 Y161.393 E9.9622
G1 X133.066 Y159.871 E10.0524
G1 X133.026 Y159.767 E10.0584
G1 X132.545 Y158.348 E10.1398
G1 X132.525 Y158.284 E10.1435
G1 X132.247 Y157.303 E10.1989
G1 X132.177 Y157.152 E10.2079
G1 X132.021 Y156.926 E10.2228
G1 X131.932 Y156.831 E10.2299
G1 X131.800 Y156.719 E10.2393
G1 X131.606 Y156.589 E10.2520
G1 X131.520 Y156.547 E10.2572
G1 X130.282 Y156.869 E10.3267
G1 X130.212 Y156.885 E10.3306
G1 X128.553 Y157.222 E10.4226
G1 X128.457 Y157.238 E10.4279
G1 X127.311 Y157.385 E10.4906
G1 X127.229 Y157.393 E10.4951
G1 X126.080 Y157.468 E10.5577
G1 X126.033 Y157.470 E10.5602
G1 X124.793 Y157.507 E10.6276
G1 X124.699 Y157.507 E10.6327
G1 X123.558 Y157.461 E10.6948
G1 X123.411 Y157.447 E10.7028
G1 X122.274 Y157.273 E10.7653
G1 X122.141 Y157.246 E10.7727
G1 X121.275 Y157.021 E10.8212
G1 X121.184 Y156.994 E10.8264
G1 X120.335 Y156.707 E10.8751
G1 X120.240 Y156.671 E10.8806
G1 X119.283 Y156.263 E10.9372
G1 X119.206 Y156.228 E10.9418
G1 X118.706 Y155.976 E10.9722
G1 X118.627 Y155.933 E10.9771
G1 X117.742 Y155.411 E11.0329
G1 X117.660 Y155.358 E11.0382
G1 X117.202 Y155.040 E11.0685
G1 X117.120 Y154.979 E11.0741
G1 X116.322 Y154.329 E11.1300
G1 X116.220 Y154.237 E11.1374
G1 X115.337 Y153.352 E11.2054
G1 X115.241 Y153.245 E11.2131
G1 X114.462 Y152.274 E11.2808
G1 X114.388 Y152.174 E11.2876
G1 X113.909 Y151.447 E11.3349
G1 X113.857 Y151.360 E11.3403
G1 X113.439 Y150.609 E11.3870
G1 X113.394 Y150.521 E11.3924
G1 X113.022 Y149.717 E11.4406
G1 X112.971 Y149.589 E11.4480
G1 X112.552 Y148.365 E11.5183
G1 X112.511 Y148.217 E11.5267
G1 X112.321 Y147.345 E11.5752
G1 X112.302 Y147.237 E11.5811
G1 X112.185 Y146.352 E11.6296
G1 X112.175 Y146.238 E11.6358
G1 X112.135 Y145.330 E11.6852
G1 X112.135 Y145.198 E11.6924
G1 X112.185 Y144.283 E11.7422
G1 X112.203 Y144.129 E11.7506
G1 X112.360 Y143.214 E11.8010
G1 X112.403 Y143.039 E11.8108
G1 X112.809 Y141.754 E11.8840
G1 X112.867 Y141.602 E11.8929
G1 X113.256 Y140.751 E11.9437
G1 X113.317 Y140.632 E11.9510
G1 X113.768 Y139.860 E11.9996
G1 X113.835 Y139.757 E12.0062
G1 X114.135 Y139.338 E12.0342
G1 X114.236 Y139.212 E12.0430
G1 X114.853 Y138.540 E12.0926
G1 X114.961 Y138.435 E12.1007
G1 X115.616 Y137.866 E12.1479
G1 X115.680 Y137.814 E12.1524
G1 X117.616 Y136.331 E12.2848
G1 X117.654 Y136.303 E12.2874
G1 X119.326 Y135.115 E12.3989
G1 X120.284 Y134.301 E12.4672
G1 X121.153 Y133.469 E12.5325
G1 X121.662 Y132.934 E12.5726
G1 X122.152 Y132.381 E12.6128
G1 X123.090 Y131.223 E12.6938
G1 X123.254 Y130.980 E12.7097
G1 X123.425 Y130.665 E12.7292
G1 X123.594 Y130.268 E12.7526
G1 X123.711 Y129.870 E12.7752
G1 X123.732 Y129.760 E12.7812
G1 X123.775 Y129.297 E12.8065
G1 X123.761 Y128.851 E12.8307
G1 X123.624 Y127.872 E12.8844
G1 X123.611 Y127.678 E12.8950
G1 X123.616 Y126.982 E12.9328
G1 X123.989 Y126.049 E12.9874
G92 E0.0000
G1 E-4.0000 F3000
G1 X124.051 Y127.665 F4800
G1 E0.0000 F3000
G92 E0.0000
G1 X124.055 Y127.069 E0.0324 F2100
G1 X124.367 Y126.289 E0.0780
G1 X125.402 Y125.188 E0.1601
G1 X127.483 Y125.316 E0.2734
G1 X128.403 Y126.575 E0.3581
G1 X128.518 Y126.774 E0.3706
G1 X128.756 Y127.301 E0.4020
G1 X128.797 Y127.404 E0.4080
G1 X128.965 Y127.907 E0.4369
G1 X129.001 Y128.042 E0.4445
G1 X129.193 Y129.000 E0.4975
G1 X129.214 Y129.167 E0.5067
G1 X129.261 Y130.182 E0.5619
G1 X129.255 Y130.363 E0.5718
G1 X129.139 Y131.351 E0.6258
G1 X129.107 Y131.517 E0.6349
G1 X128.848 Y132.455 E0.6878
G1 X128.808 Y132.574 E0.6946
G1 X128.461 Y133.439 E0.7453
G1 X128.404 Y133.560 E0.7526
G1 X128.057 Y134.191 E0.7917
G1 X127.982 Y134.310 E0.7993
G1 X127.237 Y135.333 E0.8681
G1 X127.206 Y135.373 E0.8708
G1 X126.062 Y136.803 E0.9703
G1 X126.012 Y136.861 E0.9745
G1 X124.421 Y138.589 E1.1021
G1 X124.368 Y138.642 E1.1062
G1 X123.207 Y139.745 E1.1932
G1 X123.137 Y139.806 E1.1982
