; G-Code generated by Simplify3D(R) Version 4.1.2
; Oct 18, 2019 at 10:51:02 AM
; Settings Summary
;   processName,Process1
;   applyToModels,20mm_xy
;   profileName,1 (modified)
;   profileVersion,2017-03-01 08:00:00
;   baseProfile,Default (modified)
;   printMaterial,PLA
;   printQuality,Medium
;   printExtruders,
;   extruderName,Primary Extruder
;   extruderToolheadNumber,0
;   extruderDiameter,0.4
;   extruderAutoWidth,0
;   extruderWidth,0.4
;   extrusionMultiplier,0.99
;   extruderUseRetract,1
;   extruderRetractionDistance,4
;   extruderExtraRestartDistance,0
;   extruderRetractionZLift,0
;   extruderRetractionSpeed,3000
;   extruderUseCoasting,1
;   extruderCoastingDistance,0.2
;   extruderUseWipe,0
;   extruderWipeDistance,5
;   primaryExtruder,0
;   layerHeight,0.2
;   topSolidLayers,3
;   bottomSolidLayers,3
;   perimeterOutlines,3
;   printPerimetersInsideOut,1
;   startPointOption,2
;   startPointOriginX,200
;   startPointOriginY,200
;   sequentialIslands,0
;   spiralVaseMode,0
;   firstLayerHeightPercentage,150
;   firstLayerWidthPercentage,110
;   firstLayerUnderspeed,0.7
;   useRaft,0
;   raftExtruder,0
;   raftTopLayers,3
;   raftBaseLayers,2
;   raftOffset,3
;   raftSeparationDistance,0.14
;   raftTopInfill,100
;   aboveRaftSpeedMultiplier,0.3
;   useSkirt,1
;   skirtExtruder,0
;   skirtLayers,1
;   skirtOutlines,2
;   skirtOffset,2
;   usePrimePillar,0
;   primePillarExtruder,999
;   primePillarWidth,12
;   primePillarLocation,7
;   primePillarSpeedMultiplier,1
;   useOozeShield,0
;   oozeShieldExtruder,999
;   oozeShieldOffset,2
;   oozeShieldOutlines,1
;   oozeShieldSidewallShape,1
;   oozeShieldSidewallAngle,30
;   oozeShieldSpeedMultiplier,1
;   infillExtruder,0
;   internalInfillPattern,Full Honeycomb
;   externalInfillPattern,Rectilinear
;   infillPercentage,20
;   outlineOverlapPercentage,15
;   infillExtrusionWidthPercentage,100
;   minInfillLength,5
;   infillLayerInterval,1
;   internalInfillAngles,0,120,-120
;   overlapInternalInfillAngles,0
;   externalInfillAngles,45,-45
;   generateSupport,0
;   supportExtruder,0
;   supportInfillPercentage,30
;   supportExtraInflation,0
;   supportBaseLayers,0
;   denseSupportExtruder,0
;   denseSupportLayers,0
;   denseSupportInfillPercentage,70
;   supportLayerInterval,1
;   supportHorizontalPartOffset,0.3
;   supportUpperSeparationLayers,1
;   supportLowerSeparationLayers,1
;   supportType,0
;   supportGridSpacing,4
;   maxOverhangAngle,45
;   supportAngles,0
;   temperatureName,Primary Extruder,Bad
;   temperatureNumber,0,0
;   temperatureSetpointCount,1,1
;   temperatureSetpointLayers,1,1
;   temperatureSetpointTemperatures,210,60
;   temperatureStabilizeAtStartup,1,1
;   temperatureHeatedBed,0,1
;   fanLayers,1,2
;   fanSpeeds,0,70
;   blipFanToFullPower,0
;   adjustSpeedForCooling,1
;   minSpeedLayerTime,15
;   minCoolingSpeedSlowdown,20
;   increaseFanForCooling,0
;   minFanLayerTime,45
;   maxCoolingFanSpeed,100
;   increaseFanForBridging,0
;   bridgingFanSpeed,100
;   use5D,1
;   relativeEdistances,0
;   allowEaxisZeroing,1
;   independentExtruderAxes,0
;   includeM10123,0
;   stickySupport,1
;   applyToolheadOffsets,0
;   gcodeXoffset,0
;   gcodeYoffset,0
;   gcodeZoffset,0
;   overrideMachineDefinition,1
;   machineTypeOverride,0
;   strokeXoverride,300
;   strokeYoverride,300
;   strokeZoverride,300
;   originOffsetXoverride,0
;   originOffsetYoverride,0
;   originOffsetZoverride,0
;   homeXdirOverride,-1
;   homeYdirOverride,-1
;   homeZdirOverride,-1
;   flipXoverride,1
;   flipYoverride,-1
;   flipZoverride,1
;   toolheadOffsets,0,0|0,0|0,0|0,0|0,0|0,0
;   overrideFirmwareConfiguration,0
;   firmwareTypeOverride,RepRap (Marlin/Repetier/Sprinter)
;   GPXconfigOverride,r2
;   baudRateOverride,115200
;   overridePrinterModels,0
;   printerModelsOverride
;   startingGcode,G21,G28,G29
;   layerChangeGcode,
;   retractionGcode,
;   toolChangeGcode,
;   endingGcode,G1 X0,M104 S0 ; turn off extruder,M140 S0 ; turn off bed,M84 ; disable motors
;   exportFileFormat,gcode
;   celebration,0
;   celebrationSong,Random Song
;   postProcessing,
;   defaultSpeed,3000
;   outlineUnderspeed,0.5
;   solidInfillUnderspeed,0.8
;   supportUnderspeed,0.8
;   rapidXYspeed,4800
;   rapidZspeed,1000
;   minBridgingArea,50
;   bridgingExtraInflation,0
;   bridgingExtrusionMultiplier,1
;   bridgingSpeedMultiplier,1
;   useFixedBridgingAngle,0
;   fixedBridgingAngle,0
;   applyBridgingToPerimeters,0
;   filamentDiameters,1.75|1.75|1.75|1.75|1.75|1.75
;   filamentPricesPerKg,46|46|46|46|46|46
;   filamentDensities,1.25|1.25|1.25|1.25|1.25|1.25
;   useMinPrintHeight,0
;   minPrintHeight,0
;   useMaxPrintHeight,0
;   maxPrintHeight,0
;   useDiaphragm,0
;   diaphragmLayerInterval,20
;   robustSlicing,1
;   mergeAllIntoSolid,0
;   onlyRetractWhenCrossingOutline,1
;   retractBetweenLayers,1
;   useRetractionMinTravel,0
;   retractionMinTravel,3
;   retractWhileWiping,0
;   onlyWipeOutlines,1
;   avoidCrossingOutline,0
;   maxMovementDetourFactor,3
;   toolChangeRetractionDistance,12
;   toolChangeExtraRestartDistance,-0.5
;   toolChangeRetractionSpeed,600
;   externalThinWallType,0
;   internalThinWallType,2
;   thinWallAllowedOverlapPercentage,10
;   singleExtrusionMinLength,1
;   singleExtrusionMinPrintingWidthPercentage,50
;   singleExtrusionMaxPrintingWidthPercentage,200
;   singleExtrusionEndpointExtension,0.2
;   horizontalSizeCompensation,0
G90
M82
M106 S0
M140 S60
M190 S60
M104 S210 T0
M109 S210 T0
G21
G28
G29
; process Process1
; layer 1, Z = 0.300
T0
G92 E0.0000
G1 E-4.0000 F3000
; feature skirt
; tool H0.300 W0.440
G1 Z0.300 F1000
G1 X137.340 Y138.898 F4800
G1 E0.0000 F3000
G92 E0.0000
G1 X138.898 Y137.340 E0.1197 F2100
G1 X161.102 Y137.340 E1.3261
G1 X162.660 Y138.898 E1.4458
G1 X162.660 Y161.102 E2.6521
G1 X161.102 Y162.660 E2.7718
G1 X138.898 Y162.660 E3.9782
G1 X137.340 Y161.102 E4.0979
G1 X137.340 Y138.898 E5.3042
G92 E0.0000
G1 E-4.0000 F3000
G1 X137.780 Y139.080 F4800
G1 E0.0000 F3000
G92 E0.0000
G1 X139.080 Y137.780 E0.0999 F2100
G1 X160.920 Y137.780 E1.2864
G1 X162.220 Y139.080 E1.3864
G1 X162.220 Y160.920 E2.5729
G1 X160.920 Y162.220 E2.6728
G1 X139.080 Y162.220 E3.8593
G1 X137.780 Y160.920 E3.9593
G1 X137.780 Y139.080 E5.1458
G92 E0.0000
G1 E-4.0000 F3000
; feature inner perimeter
G1 X141.100 Y141.100 F4800
G1 E0.0000 F3000
G92 E0.0000
G1 X158.900 Y141.100 E0.9671 F1575
G1 X158.900 Y158.900 E1.9342
G1 X141.100 Y158.900 E2.9012
G1 X141.100 Y141.300 E3.8575
G1 X141.100 Y141.100 F1575
G1 X140.660 Y140.660 F4800
G92 E0.0000
G1 X159.340 Y140.660 E1.0149 F1575
G1 X159.340 Y159.340 E2.0298
G1 X140.660 Y159.340 E3.0447
G1 X140.660 Y140.860 E4.0487
G1 X140.660 Y140.660 F1575
; feature outer perimeter
G1 X140.220 Y140.220 F4800
G92 E0.0000
G1 X159.780 Y140.220 E1.0627 F1050
G1 X159.780 Y159.780 E2.1254
G1 X140.220 Y159.780 E3.1881
G1 X140.220 Y140.420 E4.2399
G1 X140.220 Y140.220 F1050
; feature solid layer
G1 X158.275 Y141.474 F4800
G92 E0.0000
G1 X158.526 Y141.725 E0.0193 F1680
G1 X158.526 Y142.347 E0.0531
G1 X157.653 Y141.474 E0.1202
G1 X157.030 Y141.474 E0.1540
G1 X158.526 Y142.970 E0.2689
G1 X158.526 Y143.592 E0.3027
G1 X156.408 Y141.474 E0.4655
G1 X155.786 Y141.474 E0.4993
G1 X158.526 Y144.214 E0.7098
G1 X158.526 Y144.836 E0.7436
G1 X155.164 Y141.474 E1.0020
G1 X154.541 Y141.474 E1.0358
G1 X158.526 Y145.459 E1.3419
G1 X158.526 Y146.081 E1.3757
G1 X153.919 Y141.474 E1.7297
G1 X153.297 Y141.474 E1.7635
G1 X158.526 Y146.703 E2.1653
G1 X158.526 Y147.325 E2.1991
G1 X152.675 Y141.474 E2.6487
G1 X152.052 Y141.474 E2.6825
G1 X158.526 Y147.948 E3.1799
G1 X158.526 Y148.570 E3.2137
G1 X151.430 Y141.474 E3.7589
G1 X150.808 Y141.474 E3.7927
G1 X158.526 Y149.192 E4.3858
G1 X158.526 Y149.814 E4.4196
G1 X150.186 Y141.474 E5.0604
G1 X149.563 Y141.474 E5.0942
G1 X158.526 Y150.437 E5.7829
G1 X158.526 Y151.059 E5.8167
G1 X148.941 Y141.474 E6.5531
G1 X148.319 Y141.474 E6.5869
G1 X158.526 Y151.681 E7.3712
G1 X158.526 Y152.303 E7.4050
G1 X147.697 Y141.474 E8.2371
G1 X147.074 Y141.474 E8.2709
G1 X158.526 Y152.926 E9.1508
G1 X158.526 Y153.548 E9.1846
G1 X146.452 Y141.474 E10.1123
G1 X145.830 Y141.474 E10.1461
G1 X158.526 Y154.170 E11.1216
G1 X158.526 Y154.792 E11.1554
G1 X145.208 Y141.474 E12.1787
G1 X144.585 Y141.474 E12.2126
G1 X158.526 Y155.415 E13.2837
G1 X158.526 Y156.037 E13.3175
G1 X143.963 Y141.474 E14.4364
G1 X143.341 Y141.474 E14.4702
G1 X158.526 Y156.659 E15.6370
G1 X158.526 Y157.281 E15.6708
G1 X142.719 Y141.474 E16.8854
G1 X142.096 Y141.474 E16.9192
G1 X158.526 Y157.904 E18.1816
G1 X158.526 Y158.526 E18.2154
G1 X141.474 Y141.474 E19.5255
G1 X141.474 Y142.096 E19.5594
G1 X157.904 Y158.526 E20.8217
G1 X157.282 Y158.526 E20.8555
G1 X141.474 Y142.718 E22.0701
G1 X141.474 Y143.341 E22.1039
G1 X156.659 Y158.526 E23.2707
G1 X156.037 Y158.526 E23.3045
G1 X141.474 Y143.963 E24.4234
G1 X141.474 Y144.585 E24.4572
G1 X155.415 Y158.526 E25.5284
G1 X154.792 Y158.526 E25.5622
G1 X141.474 Y145.208 E26.5855
G1 X141.474 Y145.830 E26.6193
G1 X154.170 Y158.526 E27.5948
G1 X153.548 Y158.526 E27.6286
G1 X141.474 Y146.452 E28.5563
G1 X141.474 Y147.074 E28.5901
G1 X152.926 Y158.526 E29.4700
G1 X152.303 Y158.526 E29.5038
G1 X141.474 Y147.697 E30.3359
G1 X141.474 Y148.319 E30.3697
G1 X151.681 Y158.526 E31.1540
G1 X151.059 Y158.526 E31.1878
G1 X141.474 Y148.941 E31.9243
G1 X141.474 Y149.563 E31.9581
G1 X150.437 Y158.526 E32.6467
G1 X149.814 Y158.526 E32.6805
G1 X141.474 Y150.186 E33.3214
G1 X141.474 Y150.808 E33.3552
G1 X149.192 Y158.526 E33.9482
G1 X148.570 Y158.526 E33.9820
G1 X141.474 Y151.430 E34.5272
G1 X141.474 Y152.052 E34.5610
G1 X147.948 Y158.526 E35.0584
G1 X147.325 Y158.526 E35.0922
G1 X141.474 Y152.675 E35.5418
G1 X141.474 Y153.297 E35.5756
G1 X146.703 Y158.526 E35.9774
G1 X146.081 Y158.526 E36.0112
G1 X141.474 Y153.919 E36.3652
G1 X141.474 Y154.541 E36.3990
G1 X145.459 Y158.526 E36.7052
G1 X144.836 Y158.526 E36.7390
G1 X141.474 Y155.164 E36.9973
G1 X141.474 Y155.786 E37.0311
G1 X144.214 Y158.526 E37.2417
G1 X143.592 Y158.526 E37.2755
G1 X141.474 Y156.408 E37.4382
G1 X141.474 Y157.030 E37.4720
G1 X142.970 Y158.526 E37.5869
G1 X142.347 Y158.526 E37.6207
G1 X141.474 Y157.653 E37.6879
G1 X141.474 Y158.275 E37.7217
G1 X141.584 Y158.385 E37.7301
G1 X141.725 Y158.526 F1680
G92 E0.0000
G1 E-4.0000 F3000
; layer 2, Z = 0.500
M106 S179
; feature inner perimeter
; tool H0.200 W0.400
G1 Z0.500 F1000
G1 X141.000 Y159.000 F4800
G1 E0.0000 F3000
G92 E0.0000
G1 X141.000 Y141.000 E0.5927 F2250
G1 X159.000 Y141.000 E1.1854
G1 X159.000 Y159.000 E1.7781
G1 X141.200 Y159.000 E2.3642
G1 X141.000 Y159.000 F2250
G1 X140.600 Y159.400 F4800
G92 E0.0000
G1 X140.600 Y140.600 E0.6190 F2250
G1 X159.400 Y140.600 E1.2381
G1 X159.400 Y159.400 E1.8571
G1 X140.800 Y159.400 E2.4696
G1 X140.600 Y159.400 F2250
; feature outer perimeter
G1 X140.200 Y159.800 F4800
G92 E0.0000
G1 X140.200 Y140.200 E0.6454 F1500
G1 X159.800 Y140.200 E1.2908
G1 X159.800 Y159.800 E1.9361
G1 X140.400 Y159.800 E2.5749
G1 X140.200 Y159.800 F1500
; feature solid layer
G1 X141.340 Y141.689 F4800
G92 E0.0000
G1 X141.689 Y141.340 E0.0163 F2400
G1 X142.255 Y141.340 E0.0349
G1 X141.340 Y142.255 E0.0775
G1 X141.340 Y142.821 E0.0961
G1 X142.821 Y141.340 E0.1651
G1 X143.387 Y141.340 E0.1837
G1 X141.340 Y143.387 E0.2790
G1 X141.340 Y143.952 E0.2977
G1 X143.952 Y141.340 E0.4193
G1 X144.518 Y141.340 E0.4379
G1 X141.340 Y144.518 E0.5859
G1 X141.340 Y145.084 E0.6045
G1 X145.084 Y141.340 E0.7789
G1 X145.649 Y141.340 E0.7975
G1 X141.340 Y145.649 E0.9982
G1 X141.340 Y146.215 E1.0168
G1 X146.215 Y141.340 E1.2438
G1 X146.781 Y141.340 E1.2624
G1 X141.340 Y146.781 E1.5158
G1 X141.340 Y147.346 E1.5344
G1 X147.346 Y141.340 E1.8141
G1 X147.912 Y141.340 E1.8327
G1 X141.340 Y147.912 E2.1388
G1 X141.340 Y148.478 E2.1574
G1 X148.478 Y141.340 E2.4898
G1 X149.043 Y141.340 E2.5084
G1 X141.340 Y149.043 E2.8671
G1 X141.340 Y149.609 E2.8857
G1 X149.609 Y141.340 E3.2708
G1 X150.175 Y141.340 E3.2894
G1 X141.340 Y150.175 E3.7008
G1 X141.340 Y150.740 E3.7194
G1 X150.740 Y141.340 E4.1572
G1 X151.306 Y141.340 E4.1758
G1 X141.340 Y151.306 E4.6399
G1 X141.340 Y151.872 E4.6585
G1 X151.872 Y141.340 E5.1490
G1 X152.437 Y141.340 E5.1676
G1 X141.340 Y152.437 E5.6844
G1 X141.340 Y153.003 E5.7030
G1 X153.003 Y141.340 E6.2461
G1 X153.569 Y141.340 E6.2647
G1 X141.340 Y153.569 E6.8342
G1 X141.340 Y154.135 E6.8528
G1 X154.135 Y141.340 E7.4486
G1 X154.700 Y141.340 E7.4672
G1 X141.340 Y154.700 E8.0894
G1 X141.340 Y155.266 E8.1080
G1 X155.266 Y141.340 E8.7565
G1 X155.832 Y141.340 E8.7751
G1 X141.340 Y155.832 E9.4499
G1 X141.340 Y156.397 E9.4686
G1 X156.397 Y141.340 E10.1697
G1 X156.963 Y141.340 E10.1884
G1 X141.340 Y156.963 E10.9159
G1 X141.340 Y157.529 E10.9345
G1 X157.529 Y141.340 E11.6883
G1 X158.094 Y141.340 E11.7070
G1 X141.340 Y158.094 E12.4872
G1 X141.340 Y158.660 E12.5058
G1 X158.660 Y141.340 E13.3123
G1 X158.660 Y141.906 E13.3309
G1 X141.906 Y158.660 E14.1111
G1 X142.471 Y158.660 E14.1298
G1 X158.660 Y142.471 E14.8836
G1 X158.660 Y143.037 E14.9022
G1 X143.037 Y158.660 E15.6297
G1 X143.603 Y158.660 E15.6484
G1 X158.660 Y143.603 E16.3495
G1 X158.660 Y144.168 E16.3682
G1 X144.168 Y158.660 E17.0430
G1 X144.734 Y158.660 E17.0616
G1 X158.660 Y144.734 E17.7101
G1 X158.660 Y145.300 E17.7287
G1 X145.300 Y158.660 E18.3509
G1 X145.866 Y158.660 E18.3695
G1 X158.660 Y145.866 E18.9653
G1 X158.660 Y146.431 E18.9839
G1 X146.431 Y158.660 E19.5534
G1 X146.997 Y158.660 E19.5720
G1 X158.660 Y146.997 E20.1151
G1 X158.660 Y147.563 E20.1337
G1 X147.563 Y158.660 E20.6505
G1 X148.128 Y158.660 E20.6691
G1 X158.660 Y148.128 E21.1595
G1 X158.660 Y148.694 E21.1782
G1 X148.694 Y158.660 E21.6423
G1 X149.260 Y158.660 E21.6609
G1 X158.660 Y149.260 E22.0986
G1 X158.660 Y149.825 E22.1172
G1 X149.825 Y158.660 E22.5286
G1 X150.391 Y158.660 E22.5473
G1 X158.660 Y150.391 E22.9323
G1 X158.660 Y150.957 E22.9510
G1 X150.957 Y158.660 E23.3097
G1 X151.522 Y158.660 E23.3283
G1 X158.660 Y151.522 E23.6607
G1 X158.660 Y152.088 E23.6793
G1 X152.088 Y158.660 E23.9853
G1 X152.654 Y158.660 E24.0040
G1 X158.660 Y152.654 E24.2837
G1 X158.660 Y153.219 E24.3023
G1 X153.219 Y158.660 E24.5556
G1 X153.785 Y158.660 E24.5743
G1 X158.660 Y153.785 E24.8013
G1 X158.660 Y154.351 E24.8199
G1 X154.351 Y158.660 E25.0206
G1 X154.916 Y158.660 E25.0392
G1 X158.660 Y154.916 E25.2135
G1 X158.660 Y155.482 E25.2321
G1 X155.482 Y158.660 E25.3801
G1 X156.048 Y158.660 E25.3987
G1 X158.660 Y156.048 E25.5204
G1 X158.660 Y156.614 E25.5390
G1 X156.614 Y158.660 E25.6343
G1 X157.179 Y158.660 E25.6529
G1 X158.660 Y157.179 E25.7219
G1 X158.660 Y157.745 E25.7405
G1 X157.745 Y158.660 E25.7831
G1 X158.311 Y158.660 E25.8017
G1 X158.519 Y158.452 E25.8114
G1 X158.660 Y158.311 F2400
G92 E0.0000
G1 E-4.0000 F3000
; layer 3, Z = 0.700
; feature inner perimeter
G1 Z0.700 F1000
G1 X159.000 Y159.000 F4800
G1 E0.0000 F3000
G92 E0.0000
G1 X141.000 Y159.000 E0.5927 F2250
G1 X141.000 Y141.000 E1.1854
G1 X159.000 Y141.000 E1.7781
G1 X159.000 Y158.800 E2.3642
G1 X159.000 Y159.000 F2250
G1 X159.400 Y159.400 F4800
G92 E0.0000
G1 X140.600 Y159.400 E0.6190 F2250
G1 X140.600 Y140.600 E1.2381
G1 X159.400 Y140.600 E1.8571
G1 X159.400 Y159.200 E2.4696
G1 X159.400 Y159.400 F2250
; feature outer perimeter
G1 X159.800 Y159.800 F4800
G92 E0.0000
G1 X140.200 Y159.800 E0.6454 F1500
G1 X140.200 Y140.200 E1.2908
G1 X159.800 Y140.200 E1.9361
G1 X159.800 Y159.600 E2.5749
G1 X159.800 Y159.800 F1500
; feature solid layer
G1 X141.689 Y158.660 F4800
G92 E0.0000
G1 X141.340 Y158.311 E0.0163 F2400
G1 X141.340 Y157.745 E0.0349
G1 X142.255 Y158.660 E0.0775
G1 X142.821 Y158.660 E0.0961
G1 X141.340 Y157.179 E0.1651
G1 X141.340 Y156.613 E0.1837
G1 X143.387 Y158.660 E0.2790
G1 X143.952 Y158.660 E0.2976
G1 X141.340 Y156.048 E0.4193
G1 X141.340 Y155.482 E0.4379
G1 X144.518 Y158.660 E0.5859
G1 X145.084 Y158.660 E0.6045
G1 X141.340 Y154.916 E0.7789
G1 X141.340 Y154.351 E0.7975
G1 X145.649 Y158.660 E0.9981
G1 X146.215 Y158.660 E1.0168
G1 X141.340 Y153.785 E1.2438
G1 X141.340 Y153.219 E1.2624
G1 X146.781 Y158.660 E1.5158
G1 X147.346 Y158.660 E1.5344
G1 X141.340 Y152.654 E1.8141
